; generated by Slic3r 1.2.9 on 2015-07-19 at 15:34:14

; L0.30 - 0,56
; L0,25 - 0,52

; external perimeters extrusion width = 0.52mm
; perimeters extrusion width = 0.52mm
; infill extrusion width = 0.52mm
; solid infill extrusion width = 0.52mm
; top infill extrusion width = 0.52mm
; support material extrusion width = 0.25mm

M104 P200 ; set temperature
G92 A0; set extruder axis to 0
G1 Z15 F5000 ; lift nozzle
M106 P0
M109 P200 ; wait for temperature to be reached
G21 ; set units to millimeters
G90 ; use absolute coordinates

G92 A0
G1 Z0.300 F9600.000
G1 A-1.50000 F1500.00000
G92 A0
G1 Z0.600 F9600.000
G1 X-28.657 Y0.000 F9600.000
G1 Z0.300 F9600.000
G1 A1.50000 F1500.00000
G1 X-28.657 Y-20.124 A2.50660 F900.000
G1 X-28.260 Y-22.298 A2.61716
G1 X-27.121 Y-24.192 A2.72772
G1 X-25.658 Y-25.409 A2.82290
G1 X-0.103 Y-40.679 A4.31200
G1 X2.314 Y-41.978 A4.44926
G1 X3.429 Y-42.440 A4.50963
G1 X5.774 Y-43.152 A4.63220
G1 X6.958 Y-43.387 A4.69257
G1 X9.396 Y-43.627 A4.81514
G1 X10.604 Y-43.627 A4.87552
G1 X13.001 Y-43.391 A4.99605
G1 X14.166 Y-43.161 A5.05544 F900.000
G1 X16.552 Y-42.446 A5.18001
G1 X17.686 Y-41.978 A5.24136
G1 X19.847 Y-40.823 A5.36394
G1 X20.851 Y-40.153 A5.42432
G1 X22.745 Y-38.598 A5.54689
G1 X23.598 Y-37.745 A5.60725
G1 X25.153 Y-35.851 A5.72982
G1 X25.823 Y-34.847 A5.79020
G1 X26.978 Y-32.686 A5.91278
G1 X27.440 Y-31.571 A5.97315
G1 X28.152 Y-29.226 A6.09572
G1 X28.359 Y-28.278 A6.14423
G1 X30.309 Y-14.119 A6.85917
G1 X30.366 Y-13.279 A6.90127
G1 X30.366 Y14.260 A8.27882
G1 X30.301 Y15.155 A8.32371
G1 X28.479 Y27.553 A8.95052
G1 X28.113 Y29.436 A9.04648
G1 X27.904 Y30.214 A9.08676
G1 X27.379 Y31.763 A9.16855
G1 X27.070 Y32.507 A9.20883
G1 X26.347 Y33.973 A9.29062
G1 X25.945 Y34.671 A9.33090
G1 X25.036 Y36.030 A9.41269
G1 X24.546 Y36.669 A9.45298
G1 X23.468 Y37.898 A9.53476
G1 X22.888 Y38.476 A9.57570
G1 X21.637 Y39.570 A9.65884
G1 X21.007 Y40.051 A9.69847
G1 X19.671 Y40.945 A9.77889
G1 X18.973 Y41.347 A9.81917
G1 X17.507 Y42.070 A9.90096
G1 X16.763 Y42.379 A9.94125
G1 X15.214 Y42.904 A10.02303
G1 X14.436 Y43.113 A10.06332
G1 X12.833 Y43.432 A10.14511
G1 X12.034 Y43.537 A10.18540
G1 X10.403 Y43.644 A10.26719
G1 X9.597 Y43.644 A10.30746
G1 X7.966 Y43.537 A10.38925
G1 X7.167 Y43.432 A10.42954
G1 X5.564 Y43.113 A10.51133
G1 X4.786 Y42.904 A10.55161
G1 X3.237 Y42.379 A10.63340
G1 X2.493 Y42.070 A10.67368
G1 X1.027 Y41.347 A10.75547
G1 X0.590 Y41.109 A10.78038
G1 X-25.660 Y25.408 A12.31038
G1 X-27.323 Y23.951 A12.42094
G1 X-28.364 Y22.001 A12.53150
G1 X-28.657 Y20.124 A12.62654
G1 X-28.657 Y0.060 A13.63014
G1 X-28.271 Y0.000 F9600.000
G1 X-28.271 Y-20.124 A14.63674 F900.000
G1 X-27.875 Y-22.226 A14.74375
G1 X-26.740 Y-24.040 A14.85077
G1 X-25.460 Y-25.078 A14.93319
G1 X0.095 Y-40.348 A16.42229
G1 X2.496 Y-41.638 A16.55863
G1 X3.541 Y-42.071 A16.61522
G1 X5.886 Y-42.783 A16.73779
G1 X6.996 Y-43.003 A16.79438
G1 X9.434 Y-43.243 A16.91695
G1 X10.566 Y-43.243 A16.97355
G1 X12.964 Y-43.007 A17.09407
G1 X14.056 Y-42.792 A17.14974 F900.000
G1 X16.441 Y-42.077 A17.27432
G1 X17.504 Y-41.638 A17.33183
G1 X19.665 Y-40.483 A17.45440
G1 X20.606 Y-39.855 A17.51100
G1 X22.500 Y-38.300 A17.63357
G1 X23.300 Y-37.500 A17.69015
G1 X24.855 Y-35.606 A17.81273
G1 X25.483 Y-34.665 A17.86932
G1 X26.638 Y-32.504 A17.99190
G1 X27.071 Y-31.459 A18.04849
G1 X27.783 Y-29.114 A18.17106
G1 X27.977 Y-28.226 A18.21653
G1 X29.927 Y-14.067 A18.93147
G1 X29.981 Y-13.279 A18.97094
G1 X29.981 Y14.260 A20.34848
G1 X29.919 Y15.099 A20.39056
G1 X28.098 Y27.497 A21.01737
G1 X27.734 Y29.361 A21.11236
G1 X27.539 Y30.090 A21.15012
G1 X27.013 Y31.639 A21.23190
G1 X26.725 Y32.336 A21.26966
G1 X26.001 Y33.803 A21.35145
G1 X25.624 Y34.456 A21.38921
G1 X24.716 Y35.816 A21.47100
G1 X24.256 Y36.415 A21.50876
G1 X23.178 Y37.644 A21.59055
G1 X22.635 Y38.186 A21.62892
G1 X21.383 Y39.279 A21.71206
G1 X20.793 Y39.731 A21.74921
G1 X19.456 Y40.624 A21.82963
G1 X18.803 Y41.001 A21.86739
G1 X17.336 Y41.725 A21.94918
G1 X16.639 Y42.013 A21.98694
G1 X15.090 Y42.539 A22.06873
G1 X14.361 Y42.734 A22.10649
G1 X12.758 Y43.053 A22.18828
G1 X12.009 Y43.152 A22.22605
G1 X10.377 Y43.259 A22.30783
G1 X9.623 Y43.259 A22.34558
G1 X7.991 Y43.152 A22.42737
G1 X7.242 Y43.053 A22.46514
G1 X5.639 Y42.734 A22.54693
G1 X4.910 Y42.539 A22.58469
G1 X3.361 Y42.013 A22.66648
G1 X2.664 Y41.725 A22.70424
G1 X1.197 Y41.001 A22.78603
G1 X0.787 Y40.778 A22.80937
G1 X-25.463 Y25.077 A24.33938
G1 X-27.063 Y23.657 A24.44639
G1 X-28.037 Y21.752 A24.55340
G1 X-28.271 Y20.124 A24.63569
G1 X-28.271 Y0.060 A25.63929
G1 X-27.886 Y0.000 F9600.000
G1 X-27.886 Y-20.124 A26.64590 F900.000
G1 X-27.489 Y-22.151 A26.74924
G1 X-26.359 Y-23.881 A26.85258
G1 X-25.262 Y-24.747 A26.92248
G1 X0.293 Y-40.017 A28.41157
G1 X2.678 Y-41.298 A28.54700
G1 X3.653 Y-41.702 A28.59980
G1 X5.998 Y-42.414 A28.72238
G1 X7.033 Y-42.619 A28.77518
G1 X9.472 Y-42.860 A28.89775
G1 X10.528 Y-42.860 A28.95057
G1 X12.926 Y-42.623 A29.07110
G1 X13.945 Y-42.423 A29.12304 F900.000
G1 X16.330 Y-41.707 A29.24762
G1 X17.322 Y-41.298 A29.30129
G1 X19.483 Y-40.143 A29.42386
G1 X20.361 Y-39.556 A29.47668
G1 X22.256 Y-38.002 A29.59925
G1 X23.002 Y-37.255 A29.65205
G1 X24.556 Y-35.361 A29.77462
G1 X25.143 Y-34.483 A29.82744
G1 X26.298 Y-32.322 A29.95001
G1 X26.702 Y-31.347 A30.00282
G1 X27.414 Y-29.002 A30.12539
G1 X27.595 Y-28.173 A30.16783
G1 X29.545 Y-14.014 A30.88276
G1 X29.595 Y-13.279 A30.91959
G1 X29.595 Y14.260 A32.29714
G1 X29.538 Y15.043 A32.33640
G1 X27.716 Y27.441 A32.96321
G1 X27.356 Y29.286 A33.05723
G1 X27.174 Y29.966 A33.09247
G1 X26.648 Y31.515 A33.17425
G1 X26.379 Y32.166 A33.20949
G1 X25.656 Y33.632 A33.29128
G1 X25.303 Y34.242 A33.32652
G1 X24.395 Y35.602 A33.40830
G1 X23.966 Y36.161 A33.44354
G1 X22.888 Y37.390 A33.52533
G1 X22.381 Y37.895 A33.56114
G1 X21.129 Y38.989 A33.64428
G1 X20.579 Y39.410 A33.67894
G1 X19.242 Y40.303 A33.75937
G1 X18.632 Y40.655 A33.79460
G1 X17.166 Y41.379 A33.87639
G1 X16.515 Y41.648 A33.91163
G1 X14.966 Y42.174 A33.99342
G1 X14.286 Y42.356 A34.02865
G1 X12.682 Y42.675 A34.11044
G1 X11.984 Y42.767 A34.14569
G1 X10.352 Y42.874 A34.22748
G1 X9.648 Y42.874 A34.26270
G1 X8.016 Y42.767 A34.34449
G1 X7.318 Y42.675 A34.37973
G1 X5.714 Y42.356 A34.46152
G1 X5.034 Y42.174 A34.49676
G1 X3.485 Y41.648 A34.57855
G1 X2.834 Y41.379 A34.61379
G1 X1.368 Y40.655 A34.69557
G1 X0.985 Y40.447 A34.71736
G1 X-25.265 Y24.746 A36.24737
G1 X-26.801 Y23.365 A36.35071
G1 X-27.705 Y21.507 A36.45405
G1 X-27.886 Y20.124 A36.52382
G1 X-27.886 Y0.060 A37.52742
G1 F7680
G1 X-27.886 Y-7.620 A36.10242
G1 A36.02742 F1500.00000
G92 A0
G1 Z0.600 F9600.000
G1 X8.249 Y23.249 F9600.000
G1 Z0.300 F9600.000
G1 A1.50000 F1500.00000
G1 X8.624 Y22.941 A1.52428 F900.000
G1 X9.052 Y22.712 A1.54856
G1 X9.517 Y22.571 A1.57284
G1 X9.992 Y22.525 A1.59673 F900.000
G1 X10.483 Y22.571 A1.62137
G1 X10.948 Y22.712 A1.64567
G1 X11.376 Y22.941 A1.66995
G1 X11.751 Y23.249 A1.69423
G1 X12.059 Y23.624 A1.71851
G1 X12.288 Y24.052 A1.74279
G1 X12.429 Y24.517 A1.76707
G1 X12.476 Y25.000 A1.79135
G1 X12.429 Y25.483 A1.81563
G1 X12.288 Y25.948 A1.83991
G1 X12.059 Y26.376 A1.86419
G1 X11.751 Y26.751 A1.88847
G1 X11.376 Y27.059 A1.91275
G1 X10.948 Y27.288 A1.93703
G1 X10.483 Y27.429 A1.96131
G1 X10.000 Y27.476 A1.98559
G1 X9.517 Y27.429 A2.00987
G1 X9.052 Y27.288 A2.03415
G1 X8.624 Y27.059 A2.05843
G1 X8.249 Y26.751 A2.08271
G1 X7.941 Y26.376 A2.10699
G1 X7.712 Y25.948 A2.13127
G1 X7.571 Y25.483 A2.15555
G1 X7.524 Y25.000 A2.17983
G1 X7.571 Y24.517 A2.20411
G1 X7.712 Y24.052 A2.22839
G1 X7.941 Y23.624 A2.25267
G1 X8.211 Y23.296 A2.27395
G1 F7680
G1 X8.624 Y22.941 A2.17294
G1 F7680
G1 X9.052 Y22.712 A2.08288
G1 F7680
G1 X9.517 Y22.571 A1.99281
G1 A0.77395 F1500.00000
G92 A0
G1 Z0.600 F9600.000
G1 X10.000 Y-22.524 F9600.000
G1 Z0.300 F9600.000
G1 A1.50000 F1500.00000
G1 X9.517 Y-22.571 A1.52428 F900.000
G1 X9.052 Y-22.712 A1.54856
G1 X8.624 Y-22.941 A1.57284
G1 X8.249 Y-23.249 A1.59712
G1 X7.941 Y-23.624 A1.62140
G1 X7.712 Y-24.052 A1.64568
G1 X7.571 Y-24.517 A1.66996
G1 X7.524 Y-25.000 A1.69424
G1 X7.571 Y-25.483 A1.71852
G1 X7.712 Y-25.948 A1.74280
G1 X7.941 Y-26.376 A1.76708
G1 X8.249 Y-26.751 A1.79136
G1 X8.624 Y-27.059 A1.81564
G1 X9.052 Y-27.288 A1.83992
G1 X9.517 Y-27.429 A1.86420
G1 X9.992 Y-27.475 A1.88809 F900.000
G1 X10.483 Y-27.429 A1.91273
G1 X10.948 Y-27.288 A1.93703
G1 X11.376 Y-27.059 A1.96131
G1 X11.751 Y-26.751 A1.98559
G1 X12.059 Y-26.376 A2.00987
G1 X12.288 Y-25.948 A2.03415
G1 X12.429 Y-25.483 A2.05843
G1 X12.476 Y-25.000 A2.08271
G1 X12.429 Y-24.517 A2.10699
G1 X12.288 Y-24.052 A2.13127
G1 X12.059 Y-23.624 A2.15555
G1 X11.751 Y-23.249 A2.17983
G1 X11.376 Y-22.941 A2.20411
G1 X10.948 Y-22.712 A2.22839
G1 X10.483 Y-22.571 A2.25267
G1 X10.060 Y-22.530 A2.27395
G1 X-2.275 Y-20.282 F9600.000
G1 X-2.275 Y-24.989 A2.50938 F900.000
G1 X-2.038 Y-27.394 A2.63029
G1 X-1.340 Y-29.697 A2.75064
G1 X-0.205 Y-31.819 A2.87099
G1 X1.321 Y-33.679 A2.99135
G1 X3.181 Y-35.205 A3.11171
G1 X5.303 Y-36.340 A3.23206
G1 X7.605 Y-37.038 A3.35241
G1 X10.000 Y-37.274 A3.47277
G1 X12.354 Y-37.042 A3.59110
G1 X14.697 Y-36.339 A3.71346
G1 X16.819 Y-35.205 A3.83379
G1 X18.679 Y-33.679 A3.95415
G1 X20.205 Y-31.819 A4.07450
G1 X21.340 Y-29.697 A4.19486
G1 X22.038 Y-27.394 A4.31521
G1 X22.275 Y-24.989 A4.43612
G1 X22.275 Y24.992 A6.93621
G1 X22.164 Y26.629 A7.01824
G1 X21.856 Y28.177 A7.09720
G1 X21.340 Y29.697 A7.17752
G1 X20.630 Y31.137 A7.25783
G1 X19.738 Y32.472 A7.33814
G1 X18.680 Y33.679 A7.41844
G1 X17.450 Y34.753 A7.50010
G1 X16.137 Y35.630 A7.57906
G1 X14.697 Y36.340 A7.65938
G1 X13.177 Y36.856 A7.73969
G1 X11.602 Y37.170 A7.82000
G1 X10.000 Y37.275 A7.90031
G1 X8.398 Y37.170 A7.98063
G1 X6.823 Y36.856 A8.06094
G1 X5.303 Y36.340 A8.14125
G1 X3.863 Y35.630 A8.22156
G1 X2.528 Y34.738 A8.30187
G1 X1.321 Y33.679 A8.38219
G1 X0.262 Y32.472 A8.46249
G1 X-0.642 Y31.113 A8.54415
G1 X-1.340 Y29.697 A8.62311
G1 X-1.856 Y28.177 A8.70342
G1 X-2.170 Y26.602 A8.78373
G1 X-2.275 Y24.993 A8.86442
G1 X-2.275 Y20.282 A9.10003
G1 X-1.686 Y20.072 A9.13132
G1 X0.241 Y19.160 A9.23796
G1 X2.070 Y18.064 A9.34461
G1 X3.782 Y16.794 A9.45125
G1 X5.336 Y15.386 A9.55613
G1 X6.794 Y13.783 A9.66452
G1 X8.064 Y12.070 A9.77117
G1 X9.160 Y10.241 A9.87782
G1 X10.072 Y8.314 A9.98446
G1 X10.790 Y6.307 A10.09111
G1 X10.830 Y6.144 A10.09947
G1 X11.215 Y6.106 A10.11879
G1 X12.383 Y5.752 A10.17984
G1 X13.459 Y5.177 A10.24089
G1 X14.403 Y4.403 A10.30194
G1 X15.177 Y3.459 A10.36299
G1 X15.752 Y2.383 A10.42404
G1 X16.106 Y1.215 A10.48509
G1 X16.226 Y0.000 A10.54614
G1 X16.106 Y-1.215 A10.60723
G1 X15.736 Y-2.413 A10.66991
G1 X15.177 Y-3.459 A10.72927
G1 X14.403 Y-4.403 A10.79032
G1 X13.459 Y-5.177 A10.85137
G1 X12.383 Y-5.752 A10.91242
G1 X11.215 Y-6.106 A10.97347
G1 X10.830 Y-6.144 A10.99278
G1 X10.790 Y-6.307 A11.00115
G1 X10.072 Y-8.314 A11.10779
G1 X9.160 Y-10.241 A11.21444
G1 X8.064 Y-12.070 A11.32108
G1 X6.794 Y-13.782 A11.42773
G1 X5.362 Y-15.362 A11.53437
G1 X3.782 Y-16.794 A11.64102
G1 X2.070 Y-18.064 A11.74766
G1 X0.241 Y-19.160 A11.85431
G1 X-1.686 Y-20.072 A11.96095
G1 X-2.219 Y-20.262 A11.98923
G1 X-2.049 Y-21.084 F9600.000
G1 X-1.018 Y-20.053 A12.06245 F900.000
G1 X0.021 Y-19.562 F9600.000
G1 X-2.049 Y-21.631 A12.20948 F900.000
G1 X-2.049 Y-22.179 A12.23698
G1 X1.246 Y-18.884 A12.47108
G1 X2.773 Y-17.904 F9600.000
G1 X-2.049 Y-22.727 A12.81363 F900.000
G1 X-2.049 Y-23.274 A12.84114
G1 X22.049 Y0.824 A14.55294
G1 X22.049 Y0.276 A14.58045
G1 X-2.049 Y-23.822 A16.29225
G1 X-2.049 Y-24.369 A16.31976
G1 X22.049 Y-0.271 A18.03156
G1 X22.049 Y-0.819 A18.05907
G1 X-2.049 Y-24.917 A19.77087
G1 X-2.012 Y-25.428 A19.79660
G1 X22.049 Y-1.367 A21.50580
G1 X22.049 Y-1.914 A21.53330
G1 X-1.963 Y-25.927 A23.23901
G1 X-1.914 Y-26.425 A23.26417
G1 X22.049 Y-2.462 A24.96639
G1 X22.049 Y-3.010 A24.99390
G1 X-1.865 Y-26.924 A26.69263
G1 X-1.815 Y-27.421 A26.71775
G1 X22.049 Y-3.557 A28.41293
G1 X22.049 Y-4.105 A28.44043
G1 X-1.688 Y-27.841 A30.12656
G1 X-1.560 Y-28.262 A30.14861
G1 X22.049 Y-4.652 A31.82568
G1 X22.049 Y-5.200 A31.85319
G1 X-1.433 Y-28.682 A33.52120
G1 X-1.305 Y-29.102 A33.54326
G1 X22.049 Y-5.748 A35.20222
G1 X22.049 Y-6.295 A35.22972
G1 X-1.178 Y-29.522 A36.87963
G1 X-1.008 Y-29.900 A36.90043
G1 X22.049 Y-6.843 A38.53827
G1 X22.049 Y-7.391 A38.56578
G1 X-0.817 Y-30.257 A40.19007
G1 X-0.626 Y-30.613 A40.21040
G1 X22.049 Y-7.938 A41.82114
G1 X22.049 Y-8.486 A41.84864
G1 X-0.436 Y-30.970 A43.44583
G1 X3.563 Y-35.186 F9600.000
G1 X11.384 Y-27.365 A44.00139 F900.000
G1 X10.544 Y-27.658 F9600.000
G1 X3.216 Y-34.985 A44.52188 F900.000
G1 X2.916 Y-34.738 A44.54142
G1 X9.962 Y-27.692 A45.04198
G1 X9.475 Y-27.631 A45.06662
G1 X2.615 Y-34.492 A45.55396
G1 X2.314 Y-34.245 A45.57350
G1 X9.055 Y-27.503 A46.05237
G1 X8.692 Y-27.319 A46.07282
G1 X2.013 Y-33.998 A46.54728
G1 X1.712 Y-33.751 A46.56682
G1 X8.367 Y-27.097 A47.03951
G1 X8.074 Y-26.841 A47.05901
G1 X1.430 Y-33.486 A47.53098
G1 X1.173 Y-33.195 A47.55047
G1 X7.827 Y-26.541 A48.02316
G1 X7.623 Y-26.198 A48.04322
G1 X0.926 Y-32.894 A48.51890
G1 X0.679 Y-32.593 A48.53845
G1 X7.457 Y-25.816 A49.01992
G1 X7.342 Y-25.383 A49.04240
G1 X0.433 Y-32.293 A49.53322
G1 X0.186 Y-31.992 A49.55277
G1 X7.301 Y-24.877 A50.05817
G1 X7.391 Y-24.239 A50.09055
G1 X-0.054 Y-31.684 A50.61943
G1 X-0.245 Y-31.327 A50.63975
G1 X22.049 Y-9.033 A52.22339
G1 X22.049 Y-9.581 A52.25090
G1 X9.239 Y-22.391 A53.16087
G1 X9.877 Y-22.301 A53.19325
G1 X22.049 Y-10.129 A54.05788
G1 X22.049 Y-10.676 A54.08539
G1 X10.383 Y-22.342 A54.91408
G1 X10.816 Y-22.457 A54.93656
G1 X22.049 Y-11.224 A55.73453
G1 X22.049 Y-11.771 A55.76204
G1 X11.198 Y-22.623 A56.53285
G1 X11.541 Y-22.827 A56.55291
G1 X22.049 Y-12.319 A57.29937
G1 X22.049 Y-12.867 A57.32688
G1 X11.841 Y-23.074 A58.05197
G1 X12.097 Y-23.367 A58.07146
G1 X22.049 Y-13.414 A58.77843
G1 X22.049 Y-13.962 A58.80594
G1 X12.319 Y-23.692 A59.49714
G1 X12.503 Y-24.055 A59.51759
G1 X22.049 Y-14.510 A60.19566
G1 X22.049 Y-15.057 A60.22317
G1 X12.631 Y-24.475 A60.89218
G1 X12.692 Y-24.962 A60.91683
G1 X22.049 Y-15.605 A61.58152
G1 X22.049 Y-16.152 A61.60903
G1 X12.658 Y-25.543 A62.27611
G1 X12.365 Y-26.384 F9600.000
G1 X22.049 Y-16.700 A62.96400 F900.000
G1 X22.049 Y-17.248 A62.99151
G1 X3.920 Y-35.377 A64.27931
G1 X4.277 Y-35.568 A64.29963
G1 X22.049 Y-17.795 A65.56209
G1 X22.049 Y-18.343 A65.58959
G1 X4.634 Y-35.758 A66.82669
G1 X4.990 Y-35.949 A66.84702
G1 X22.049 Y-18.891 A68.05877
G1 X22.049 Y-19.438 A68.08628
G1 X5.349 Y-36.139 A69.27258
G1 X5.769 Y-36.266 A69.29463
G1 X22.049 Y-19.986 A70.45109
G1 X22.049 Y-20.533 A70.47860
G1 X6.189 Y-36.393 A71.60520
G1 X6.609 Y-36.521 A71.62726
G1 X22.049 Y-21.081 A72.72402
G1 X22.049 Y-21.629 A72.75153
G1 X7.029 Y-36.648 A73.81844
G1 X7.450 Y-36.776 A73.84050
G1 X22.049 Y-22.176 A74.87756
G1 X22.049 Y-22.724 A74.90507
G1 X7.923 Y-36.850 A75.90851
G1 X8.422 Y-36.899 A75.93367
G1 X22.049 Y-23.272 A76.90169
G1 X22.049 Y-23.819 A76.92920
G1 X8.920 Y-36.948 A77.86181
G1 X9.419 Y-36.997 A77.88697
G1 X22.049 Y-24.367 A78.78417
G1 X22.047 Y-24.917 A78.81180
G1 X9.917 Y-37.046 A79.67341
G1 X10.524 Y-36.987 A79.70406
G1 X21.987 Y-25.524 A80.51829
G1 X21.927 Y-26.132 A80.54895
G1 X11.132 Y-36.927 A81.31577
G1 X11.739 Y-36.867 A81.34643
G1 X21.867 Y-26.739 A82.06586
G1 X21.779 Y-27.375 A82.09807
G1 X12.385 Y-36.769 A82.76538
G1 X13.167 Y-36.534 A82.80640
G1 X21.541 Y-28.161 A83.40121
G1 X21.303 Y-28.947 A83.44247
G1 X13.950 Y-36.300 A83.96479
G1 X14.850 Y-35.947 F9600.000
G1 X20.947 Y-29.850 A84.39790 F900.000
G1 X20.318 Y-31.026 F9600.000
G1 X16.026 Y-35.318 A84.70279 F900.000
G1 X18.220 Y-33.672 F9600.000
G1 X18.672 Y-33.220 A84.73491 F900.000
G1 X7.904 Y-12.773 F9600.000
G1 X22.049 Y1.371 A85.73967 F900.000
G1 X22.049 Y1.919 A85.76718
G1 X8.884 Y-11.246 A86.70239
G1 X9.562 Y-10.021 F9600.000
G1 X22.049 Y2.467 A87.58943 F900.000
G1 X22.049 Y3.014 A87.61694
G1 X15.387 Y-3.648 A88.09020
G1 X15.969 Y-2.518 F9600.000
G1 X22.049 Y3.562 A88.52208 F900.000
G1 X22.049 Y4.110 A88.54959
G1 X16.214 Y-1.725 A88.96405
G1 X16.360 Y-1.032 A88.99963
G1 X22.049 Y4.657 A89.40375
G1 X22.049 Y5.205 A89.43126
G1 X16.420 Y-0.424 A89.83113
G1 X16.432 Y0.136 A89.85926
G1 X22.049 Y5.752 A90.25826
G1 X22.049 Y6.300 A90.28577
G1 X16.383 Y0.634 A90.68825
G1 X16.334 Y1.133 A90.71341
G1 X22.049 Y6.848 A91.11939
G1 X22.049 Y7.395 A91.14689
G1 X16.216 Y1.562 A91.56124
G1 X16.089 Y1.982 A91.58330
G1 X22.049 Y7.943 A92.00670
G1 X22.049 Y8.491 A92.03421
G1 X15.961 Y2.403 A92.46667
G1 X15.773 Y2.762 A92.48704
G1 X22.049 Y9.038 A92.93287
G1 X22.049 Y9.586 A92.96038
G1 X15.582 Y3.119 A93.41976
G1 X15.391 Y3.476 A93.44009
G1 X22.049 Y10.133 A93.91302
G1 X22.049 Y10.681 A93.94052
G1 X15.156 Y3.788 A94.43017
G1 X14.909 Y4.089 A94.44972
G1 X22.049 Y11.229 A94.95690
G1 X22.049 Y11.776 A94.98440
G1 X14.662 Y4.390 A95.50912
G1 X14.388 Y4.663 A95.52857
G1 X22.049 Y12.324 A96.07274
G1 X22.049 Y12.872 A96.10025
G1 X14.088 Y4.910 A96.66579
G1 X13.787 Y5.157 A96.68533
G1 X22.049 Y13.419 A97.27224
G1 X22.049 Y13.967 A97.29975
G1 X13.474 Y5.392 A97.90885
G1 X13.117 Y5.583 A97.92918
G1 X22.049 Y14.514 A98.56363
G1 X22.049 Y15.062 A98.59114
G1 X12.761 Y5.774 A99.25095
G1 X12.401 Y5.962 A99.27133
G1 X22.049 Y15.610 A99.95668
G1 X22.049 Y16.157 A99.98419
G1 X11.981 Y6.089 A100.69939
G1 X11.561 Y6.216 A100.72144
G1 X22.049 Y16.705 A101.46649
G1 X22.049 Y17.253 A101.49399
G1 X11.131 Y6.334 A102.26958
G1 X10.887 Y6.638 A102.28915
G1 X22.049 Y17.800 A103.08205
G1 X22.049 Y18.348 A103.10956
G1 X10.743 Y7.041 A103.91271
G1 X10.598 Y7.445 A103.93422
G1 X22.049 Y18.895 A104.74762
G1 X22.049 Y19.443 A104.77513
G1 X10.454 Y7.848 A105.59878
G1 X10.310 Y8.251 A105.62029
G1 X22.049 Y19.991 A106.45420
G1 X22.049 Y20.538 A106.48170
G1 X10.142 Y8.631 A107.32755
G1 X9.966 Y9.003 A107.34820
G1 X22.049 Y21.086 A108.20654
G1 X22.049 Y21.634 A108.23405
G1 X9.790 Y9.374 A109.10487
G1 X9.614 Y9.746 A109.12553
G1 X22.049 Y22.181 A110.00885
G1 X22.049 Y22.729 A110.03635
G1 X9.438 Y10.118 A110.93216
G1 X9.248 Y10.475 A110.95249
G1 X22.049 Y23.276 A111.86183
G1 X22.049 Y23.824 A111.88934
G1 X9.043 Y10.818 A112.81325
G1 X8.837 Y11.160 A112.83331
G1 X22.049 Y24.372 A113.77180
G1 X22.049 Y24.919 A113.79931
G1 X8.632 Y11.502 A114.75238
G1 X8.427 Y11.845 A114.77243
G1 X22.023 Y25.441 A115.73826
G1 X21.989 Y25.954 A115.76409
G1 X8.219 Y12.185 A116.74219
G1 X7.986 Y12.499 A116.76186
G1 X21.954 Y26.467 A117.75406
G1 X21.885 Y26.946 A117.77837
G1 X7.753 Y12.814 A118.78226
G1 X7.520 Y13.128 A118.80193
G1 X21.795 Y27.403 A119.81593
G1 X21.704 Y27.860 A119.83932
G1 X7.287 Y13.443 A120.86344
G1 X7.053 Y13.757 A120.88310
G1 X21.598 Y28.302 A121.91630
G1 X21.460 Y28.711 A121.93799
G1 X6.805 Y14.056 A122.97899
G1 X6.544 Y14.343 A122.99846
G1 X21.321 Y29.120 A124.04813
G1 X21.182 Y29.529 A124.06981
G1 X6.283 Y14.630 A125.12815
G1 X6.022 Y14.917 A125.14762
G1 X21.015 Y29.909 A126.21260
G1 X20.834 Y30.276 A126.23314
G1 X5.762 Y15.203 A127.30380
G1 X5.501 Y15.490 A127.32327
G1 X20.653 Y30.642 A128.39961
G1 X20.472 Y31.009 A128.42015
G1 X5.216 Y15.753 A129.50383
G1 X4.929 Y16.014 A129.52331
G1 X20.259 Y31.343 A130.61223
G1 X20.039 Y31.672 A130.63206
G1 X12.610 Y24.242 A131.15982
G1 X12.700 Y24.880 A131.19217
G1 X19.820 Y32.000 A131.69795
G1 X19.601 Y32.328 A131.71778
G1 X12.658 Y25.385 A132.21098
G1 X12.542 Y25.817 A132.23345
G1 X19.349 Y32.624 A132.71698
G1 X19.093 Y32.916 A132.73647
G1 X12.376 Y26.199 A133.21359
G1 X12.172 Y26.542 A133.23364
G1 X18.837 Y33.208 A133.70714
G1 X18.570 Y33.488 A133.72660
G1 X11.925 Y26.843 A134.19864
G1 X11.632 Y27.098 A134.21814
G1 X18.294 Y33.760 A134.69140
G1 X18.002 Y34.015 A134.71090
G1 X11.306 Y27.319 A135.18655
G1 X10.943 Y27.504 A135.20700
G1 X17.710 Y34.271 A135.68768
G1 X17.417 Y34.526 A135.70717
G1 X10.523 Y27.631 A136.19692
G1 X10.036 Y27.692 A136.22158
G1 X17.098 Y34.754 A136.72325
G1 X16.770 Y34.974 A136.74308
G1 X9.454 Y27.658 A137.26275
G1 X8.611 Y27.363 F9600.000
G1 X16.442 Y35.193 A137.81898 F900.000
G1 X16.113 Y35.412 A137.83881
G1 X0.132 Y19.431 A138.97401
G1 X0.488 Y19.240 A138.99432
G1 X7.637 Y26.389 A139.50214
G1 X7.342 Y25.546 F9600.000
G1 X0.831 Y19.035 A139.96467 F900.000
G1 X1.173 Y18.829 A139.98472
G1 X7.308 Y24.964 A140.42051
G1 X7.369 Y24.477 A140.44517
G1 X1.516 Y18.624 A140.86093
G1 X1.858 Y18.419 A140.88098
G1 X7.496 Y24.057 A141.28148
G1 X7.681 Y23.694 A141.30193
G1 X2.197 Y18.210 A141.69146
G1 X2.511 Y17.977 A141.71112
G1 X7.902 Y23.368 A142.09406
G1 X8.157 Y23.075 A142.11356
G1 X2.826 Y17.744 A142.49228
G1 X3.140 Y17.511 A142.51194
G1 X8.458 Y22.828 A142.88968
G1 X8.801 Y22.624 A142.90974
G1 X3.455 Y17.278 A143.28949
G1 X3.769 Y17.044 A143.30916
G1 X9.183 Y22.458 A143.69371
G1 X9.615 Y22.342 A143.71618
G1 X4.067 Y16.795 A144.11024
G1 X4.355 Y16.535 A144.12972
G1 X10.122 Y22.302 A144.53940
G1 X10.758 Y22.390 A144.57165
G1 X4.642 Y16.274 A145.00610
G1 X-0.239 Y19.607 F9600.000
G1 X15.752 Y35.599 A146.14207 F900.000
G1 X15.386 Y35.780 A146.16261
G1 X-0.611 Y19.783 A147.29893
G1 X-0.983 Y19.959 A147.31958
G1 X15.019 Y35.961 A148.45626
G1 X14.651 Y36.140 A148.47683
G1 X-1.355 Y20.135 A149.61379
G1 X-1.733 Y20.304 A149.63461
G1 X14.242 Y36.279 A150.76940
G1 X13.833 Y36.418 A150.79108
G1 X-2.049 Y20.536 A151.91928
G1 X-2.049 Y21.083 A151.94679
G1 X13.424 Y36.557 A153.04595
G1 X12.996 Y36.676 A153.06827
G1 X-2.049 Y21.631 A154.13702
G1 X-2.049 Y22.179 A154.16453
G1 X12.540 Y36.767 A155.20084
G1 X12.083 Y36.858 A155.22423
G1 X-2.049 Y22.726 A156.22810
G1 X-2.049 Y23.274 A156.25560
G1 X11.624 Y36.947 A157.22687
G1 X11.110 Y36.981 A157.25274
G1 X-2.049 Y23.821 A158.18749
G1 X-2.049 Y24.369 A158.21500
G1 X10.596 Y37.014 A159.11324
G1 X10.082 Y37.048 A159.13911
G1 X-2.048 Y24.918 A160.00077
G1 X-2.010 Y25.504 A160.03027
G1 X9.496 Y37.010 A160.84757
G1 X8.910 Y36.971 A160.87707
G1 X-1.971 Y26.090 A161.65002
G1 X-1.900 Y26.708 A161.68130
G1 X8.292 Y36.900 A162.40527
G1 X7.608 Y36.764 A162.44027
G1 X-1.764 Y27.392 A163.10602
G1 X-1.615 Y28.089 A163.14179
G1 X6.911 Y36.615 A163.74749
G1 X6.082 Y36.334 F9600.000
G1 X-1.334 Y28.918 A164.27430 F900.000
G1 X-0.977 Y29.822 F9600.000
G1 X5.178 Y35.977 A164.71149 F900.000
G1 X4.097 Y35.443 F9600.000
G1 X-0.431 Y30.916 A165.03311 F900.000
G1 X1.256 Y33.150 F9600.000
G1 X1.850 Y33.744 A165.07534 F900.000
G1 F7680
G1 X1.256 Y33.150 A164.91932
G1 A163.57534 F1500.00000
G92 A0
G1 Z0.600 F9600.000
G1 X13.648 Y-5.387 F9600.000
G1 Z0.300 F9600.000
G1 A1.50000 F1500.00000
G1 X10.053 Y-8.982 A1.75537 F900.000
G1 X10.442 Y-8.045 F9600.000
G1 X12.508 Y-5.979 A1.90215 F900.000
G1 X11.722 Y-6.217 A1.94341
G1 X10.747 Y-7.192 A2.01269
G1 F7680
G1 X11.722 Y-6.217 A1.75679
G1 F7680
G1 X12.508 Y-5.979 A1.60438
G1 F7680
G1 X10.442 Y-8.045 A1.06215
G1 A0.51269 F1500.00000
G92 A0
G1 Z0.600 F9600.000
G1 X-9.647 Y-6.191 F9600.000
G1 Z0.300 F9600.000
G1 A1.50000 F1500.00000
G1 X-10.000 Y-6.226 A1.51775 F900.000
G1 X-11.215 Y-6.106 A1.57879
G1 X-12.383 Y-5.752 A1.63985
G1 X-13.459 Y-5.177 A1.70090
G1 X-14.402 Y-4.403 A1.76195
G1 X-15.177 Y-3.459 A1.82300
G1 X-15.752 Y-2.383 A1.88405
G1 X-16.106 Y-1.215 A1.94510
G1 X-16.226 Y0.000 A2.00616
G1 X-16.106 Y1.215 A2.06721
G1 X-15.752 Y2.383 A2.12826
G1 X-15.177 Y3.459 A2.18931
G1 X-14.402 Y4.403 A2.25036
G1 X-13.459 Y5.177 A2.31141
G1 X-12.383 Y5.752 A2.37246
G1 X-11.215 Y6.106 A2.43352
G1 X-10.000 Y6.226 A2.49456
G1 X-9.647 Y6.191 A2.51231
G1 X-10.345 Y8.141 A2.61591
G1 X-11.237 Y10.029 A2.72035
G1 X-12.311 Y11.820 A2.82478
G1 X-13.554 Y13.497 A2.92922
G1 X-14.956 Y15.044 A3.03365
G1 X-16.503 Y16.446 A3.13808
G1 X-18.180 Y17.689 A3.24251
G1 X-19.971 Y18.763 A3.34695
G1 X-21.859 Y19.655 A3.45138
G1 X-22.275 Y19.804 A3.47350
G1 X-22.275 Y-19.804 A5.45474
G1 X-21.871 Y-19.660 A5.47623
G1 X-19.971 Y-18.763 A5.58130
G1 X-18.180 Y-17.689 A5.68573
G1 X-16.503 Y-16.446 A5.79017
G1 X-14.956 Y-15.044 A5.89460
G1 X-13.554 Y-13.497 A5.99903
G1 X-12.311 Y-11.820 A6.10346
G1 X-11.237 Y-10.029 A6.20790
G1 X-10.345 Y-8.141 A6.31233
G1 X-9.667 Y-6.248 A6.41293
G1 X-10.590 Y-8.031 F9600.000
G1 X-21.966 Y-19.408 A7.21776 F900.000
G1 X-22.049 Y-18.945 A7.24127
G1 X-10.270 Y-7.166 A8.07460
G1 X-10.086 Y-6.437 A8.11220
G1 X-22.049 Y-18.400 A8.95851
G1 X-22.049 Y-17.854 A8.98580
G1 X-10.583 Y-6.388 A9.79698
G1 X-11.079 Y-6.339 A9.82194
G1 X-22.049 Y-17.309 A10.59800
G1 X-22.049 Y-16.763 A10.62528
G1 X-11.516 Y-6.230 A11.37047
G1 X-11.934 Y-6.103 A11.39235
G1 X-22.049 Y-16.218 A12.10793
G1 X-22.049 Y-15.673 A12.13522
G1 X-12.353 Y-5.976 A12.82120
G1 X-12.718 Y-5.796 A12.84158
G1 X-22.049 Y-15.127 A13.50170
G1 X-22.049 Y-14.582 A13.52899
G1 X-13.074 Y-5.606 A14.16397
G1 X-13.429 Y-5.416 A14.18413
G1 X-22.049 Y-14.036 A14.79397
G1 X-22.049 Y-13.491 A14.82125
G1 X-13.747 Y-5.189 A15.40856
G1 X-14.047 Y-4.943 A15.42795
G1 X-22.049 Y-12.946 A15.99407
G1 X-22.049 Y-12.400 A16.02135
G1 X-14.346 Y-4.698 A16.56628
G1 X-14.627 Y-4.433 A16.58558
G1 X-22.049 Y-11.855 A17.11067
G1 X-22.049 Y-11.309 A17.13795
G1 X-14.873 Y-4.133 A17.64564
G1 X-15.119 Y-3.834 A17.66503
G1 X-22.049 Y-10.764 A18.15533
G1 X-22.049 Y-10.219 A18.18262
G1 X-15.362 Y-3.531 A18.65572
G1 X-15.552 Y-3.176 A18.67588
G1 X-22.049 Y-9.673 A19.13555
G1 X-22.049 Y-9.128 A19.16284
G1 X-15.742 Y-2.820 A19.60906
G1 X-15.932 Y-2.465 A19.62922
G1 X-22.049 Y-8.582 A20.06201
G1 X-22.049 Y-8.037 A20.08929
G1 X-16.067 Y-2.055 A20.51252
G1 X-16.194 Y-1.636 A20.53440
G1 X-22.049 Y-7.492 A20.94865
G1 X-22.049 Y-6.946 A20.97593
G1 X-16.321 Y-1.218 A21.38121
G1 X-16.374 Y-0.726 A21.40596
G1 X-22.049 Y-6.401 A21.80745
G1 X-22.049 Y-5.855 A21.83473
G1 X-16.423 Y-0.229 A22.23276
G1 X-16.431 Y0.308 A22.25963
G1 X-22.049 Y-5.310 A22.65706
G1 X-22.049 Y-4.765 A22.68435
G1 X-16.372 Y0.913 A23.08600
G1 X-16.265 Y1.565 A23.11906
G1 X-22.049 Y-4.219 A23.52828
G1 X-22.049 Y-3.674 A23.55556
G1 X-16.027 Y2.348 A23.98158
G1 X-15.518 Y3.403 F9600.000
G1 X-22.049 Y-3.128 A24.44365 F900.000
G1 X-22.049 Y-2.583 A24.47093
G1 X-10.809 Y8.657 A25.26615
G1 X-10.984 Y9.028 A25.28664
G1 X-22.049 Y-2.038 A26.06946
G1 X-22.049 Y-1.492 A26.09674
G1 X-11.159 Y9.398 A26.86718
G1 X-11.334 Y9.768 A26.88767
G1 X-22.049 Y-0.947 A27.64571
G1 X-22.049 Y-0.401 A27.67300
G1 X-11.523 Y10.125 A28.41768
G1 X-11.727 Y10.466 A28.43757
G1 X-22.049 Y0.144 A29.16780
G1 X-22.049 Y0.689 A29.19508
G1 X-11.932 Y10.807 A29.91085
G1 X-12.136 Y11.148 A29.93074
G1 X-22.049 Y1.235 A30.63205
G1 X-22.049 Y1.780 A30.65933
G1 X-12.340 Y11.489 A31.34618
G1 X-12.553 Y11.822 A31.36594
G1 X-22.049 Y2.326 A32.03776
G1 X-22.049 Y2.871 A32.06504
G1 X-12.785 Y12.135 A32.72042
G1 X-13.017 Y12.448 A32.73993
G1 X-22.049 Y3.416 A33.37888
G1 X-22.049 Y3.962 A33.40616
G1 X-13.250 Y12.761 A34.02869
G1 X-13.482 Y13.074 A34.04819
G1 X-22.049 Y4.507 A34.65428
G1 X-22.049 Y5.053 A34.68156
G1 X-13.715 Y13.387 A35.27120
G1 X-13.974 Y13.673 A35.29051
G1 X-22.049 Y5.598 A35.86180
G1 X-22.049 Y6.143 A35.88908
G1 X-14.233 Y13.959 A36.44203
G1 X-14.492 Y14.245 A36.46134
G1 X-22.049 Y6.689 A36.99594
G1 X-22.049 Y7.234 A37.02323
G1 X-14.752 Y14.531 A37.53948
G1 X-15.021 Y14.808 A37.55877
G1 X-22.049 Y7.780 A38.05598
G1 X-22.049 Y8.325 A38.08326
G1 X-15.294 Y15.080 A38.56118
G1 X-15.575 Y15.345 A38.58048
G1 X-22.049 Y8.870 A39.03850
G1 X-22.049 Y9.416 A39.06579
G1 X-15.861 Y15.604 A39.50357
G1 X-16.147 Y15.863 A39.52289
G1 X-22.049 Y9.961 A39.94043
G1 X-22.049 Y10.507 A39.96771
G1 X-16.433 Y16.122 A40.36502
G1 X-16.729 Y16.372 A40.38438
G1 X-22.049 Y11.052 A40.76076
G1 X-22.049 Y11.597 A40.78804
G1 X-17.042 Y16.604 A41.14227
G1 X-17.355 Y16.837 A41.16177
G1 X-22.049 Y12.143 A41.49385
G1 X-22.049 Y12.688 A41.52113
G1 X-17.668 Y17.069 A41.83105
G1 X-17.981 Y17.301 A41.85055
G1 X-22.049 Y13.234 A42.13832
G1 X-22.049 Y13.779 A42.16560
G1 X-18.297 Y17.531 A42.43106
G1 X-18.638 Y17.736 A42.45094
G1 X-22.049 Y14.324 A42.69227
G1 X-22.049 Y14.870 A42.71956
G1 X-18.979 Y17.940 A42.93676
G1 X-19.320 Y18.144 A42.95665
G1 X-22.049 Y15.415 A43.14973
G1 X-22.049 Y15.961 A43.17701
G1 X-19.661 Y18.349 A43.34596
G1 X-20.002 Y18.553 A43.36585
G1 X-22.049 Y16.506 A43.51068
G1 X-22.049 Y17.051 A43.53796
G1 X-20.369 Y18.731 A43.65679
G1 X-20.740 Y18.906 A43.67728
G1 X-22.049 Y17.597 A43.76992
G1 X-22.049 Y18.142 A43.79720
G1 X-21.110 Y19.081 A43.86364
G1 X-21.480 Y19.256 A43.88413
G1 X-22.049 Y18.688 A43.92438
G1 X-22.049 Y19.233 A43.95166
G1 X-21.850 Y19.432 A43.96571
G1 X-10.634 Y8.287 F9600.000
G1 X-13.403 Y5.518 A44.16164 F900.000
G1 X-12.348 Y6.027 F9600.000
G1 X-10.474 Y7.901 A44.29418 F900.000
G1 X-10.331 Y7.499 A44.31552
G1 X-11.565 Y6.265 A44.40285
G1 X-10.913 Y6.372 A44.43592
G1 X-10.187 Y7.097 A44.48726
G1 X-10.043 Y6.696 A44.50860
G1 X-10.308 Y6.431 A44.52732
G1 F7680
G1 X-10.043 Y6.696 A44.45791
G1 F7680
G1 X-10.187 Y7.097 A44.37875
G1 F7680
G1 X-10.913 Y6.372 A44.18831
G1 F7680
G1 X-11.565 Y6.265 A44.06566
G1 F7680
G1 X-10.331 Y7.499 A43.74175
G1 F7680
G1 X-10.474 Y7.901 A43.66260
G1 F7680
G1 X-12.348 Y6.027 A43.17098
G1 A43.02732 F1500.00000
G92 A0
G1 Z0.600 F9600.000
G1 X-11.079 Y-9.066 F9600.000
G1 Z0.300 F9600.000
G1 A1.50000 F1500.00000
G1 X-20.933 Y-18.920 A2.19709 F900.000
G1 X-19.805 Y-18.337 F9600.000
G1 X-11.663 Y-10.195 A2.77306 F900.000
G1 X-12.479 Y-11.557 F9600.000
G1 X-18.443 Y-17.521 A3.19501 F900.000
G1 X-15.559 Y-15.182 F9600.000
G1 X-14.818 Y-14.441 A3.24737 F900.000
G1 Z0.300 F9600.000
G1 A1.74737 F1500.00000
G92 A0
G1 Z0.600 F9600.000
G1 X22.811 Y-13.931 F9600.000
G1 Z0.300 F9600.000
G1 A1.50000 F1500.00000
G1 X23.112 Y-14.532 A1.53363 F900.000
G1 X23.975 Y-14.532 A1.57678
G1 X22.796 Y-12.180 A1.70839
G1 X24.209 Y-11.558 F9600.000
G1 X23.162 Y-9.468 A1.82534 F900.000
G1 X24.209 Y-9.837 A1.88090
G1 X24.024 Y-9.468 A1.90155
G1 X22.796 Y-10.459 F9600.000
G1 X24.209 Y-13.279 A2.05936 F900.000
G1 F7680
G1 X22.796 Y-10.459 A1.47397
G1 A0.55936 F1500.00000
G92 A0
G1 Z0.600 F9600.000
G1 X22.811 Y10.166 F9600.000
G1 Z0.300 F9600.000
G1 A1.50000 F1500.00000
G1 X23.161 Y9.468 A1.53907 F900.000
G1 X24.023 Y9.468 A1.58222
G1 X22.796 Y11.917 A1.71927
G1 X24.209 Y12.539 F9600.000
G1 X23.210 Y14.532 A1.83078 F900.000
G1 X24.209 Y14.260 A1.88256
G1 X24.073 Y14.532 A1.89777
G1 X22.811 Y13.609 F9600.000
G1 X24.209 Y10.818 A2.05391 F900.000
G1 Z0.350 F9600.000
G1 X23.981 Y10.993 F9600.000
G1 X23.044 Y10.993 A2.05865 F2400.000
G1 X23.044 Y12.185 A2.06469
G1 X23.981 Y12.185 A2.06943
G1 X23.981 Y13.376 A2.07546
G1 X23.044 Y13.376 A2.08020
G1 X24.137 Y14.409 F9600.000
G1 X24.137 Y9.591 A2.10460 F2400.000
G1 X22.882 Y9.591 A2.11096
G1 X22.882 Y10.571 A2.11592
G1 X22.868 Y10.571 A2.11600
G1 X22.882 Y14.409 A2.13543
G1 X24.137 Y14.409 A2.14179
G1 F7680
G1 X22.882 Y14.409 A1.90893
G1 F7680
G1 X22.868 Y10.571 A1.19689
G1 F7680
G1 X22.882 Y10.571 A1.19411
G1 F7680
G1 X22.882 Y9.591 A1.01227
G1 F7680
G1 X24.137 Y9.591 A0.77941
G1 F7680
G1 X24.137 Y9.929 A0.71679
G1 A0.64179 F1500.00000
G92 A0
G1 Z0.650 F9600.000
G1 X24.137 Y-9.591 F9600.000
G1 Z0.350 F9600.000
G1 A1.50000 F1500.00000
G1 X24.137 Y-14.409 A1.52440 F2400.000
G1 X22.882 Y-14.409 A1.53076
G1 X22.882 Y-13.429 A1.53572
G1 X22.868 Y-13.429 A1.53579
G1 X22.882 Y-9.591 A1.55523
G1 X24.137 Y-9.591 A1.56159
G1 X23.981 Y-10.451 F9600.000
G1 X23.044 Y-10.451 A1.56633 F2400.000
G1 X23.044 Y-11.642 A1.57236
G1 X23.981 Y-11.642 A1.57710
G1 X23.981 Y-12.834 A1.58314
G1 X23.044 Y-12.834 A1.58788
G1 X23.044 Y-14.025 A1.59391
G1 X23.981 Y-14.025 A1.59866
G1 Z0.550 F9600.000
G1 A0.09866 F1500.00000
G92 A0
G1 Z0.850 F9600.000
G1 X8.605 Y22.912 F9600.000
G1 Z0.550 F9600.000
G1 A1.50000 F1500.00000
G1 X9.039 Y22.680 A1.52481 F600.000
G1 X9.510 Y22.537 A1.54963
G1 X9.978 Y22.491 A1.57334 F600.000
G1 X10.489 Y22.537 A1.59919
G1 X10.961 Y22.680 A1.62406
G1 X11.395 Y22.912 A1.64888
G1 X11.776 Y23.224 A1.67370
G1 X12.088 Y23.605 A1.69852
G1 X12.320 Y24.039 A1.72333
G1 X12.463 Y24.510 A1.74814
G1 X12.511 Y25.000 A1.77296
G1 X12.463 Y25.490 A1.79778
G1 X12.320 Y25.961 A1.82259
G1 X12.088 Y26.395 A1.84741
G1 X11.776 Y26.776 A1.87223
G1 X11.395 Y27.088 A1.89705
G1 X10.961 Y27.320 A1.92186
G1 X10.490 Y27.463 A1.94668
G1 X10.000 Y27.511 A1.97150
G1 X9.510 Y27.463 A1.99631
G1 X9.039 Y27.320 A2.02113
G1 X8.605 Y27.088 A2.04594
G1 X8.224 Y26.776 A2.07076
G1 X7.912 Y26.395 A2.09558
G1 X7.680 Y25.961 A2.12040
G1 X7.537 Y25.490 A2.14521
G1 X7.489 Y25.000 A2.17003
G1 X7.537 Y24.510 A2.19485
G1 X7.680 Y24.039 A2.21966
G1 X7.912 Y23.605 A2.24448
G1 X8.224 Y23.224 A2.26929
G1 X8.558 Y22.950 A2.29109
G1 F7680
G1 X9.039 Y22.680 A2.18881
G1 F7680
G1 X9.510 Y22.537 A2.09746
G1 A0.79109 F1500.00000
G92 A0
G1 Z0.850 F9600.000
G1 X10.000 Y-22.489 F9600.000
G1 Z0.550 F9600.000
G1 A1.50000 F1500.00000
G1 X9.510 Y-22.537 A1.52482 F600.000
G1 X9.039 Y-22.680 A1.54963
G1 X8.605 Y-22.912 A1.57445
G1 X8.224 Y-23.224 A1.59927
G1 X7.912 Y-23.605 A1.62408
G1 X7.680 Y-24.039 A1.64890
G1 X7.537 Y-24.510 A1.67371
G1 X7.489 Y-25.000 A1.69853
G1 X7.537 Y-25.490 A1.72335
G1 X7.680 Y-25.961 A1.74816
G1 X7.912 Y-26.395 A1.77298
G1 X8.224 Y-26.776 A1.79780
G1 X8.605 Y-27.088 A1.82262
G1 X9.039 Y-27.320 A1.84743
G1 X9.510 Y-27.463 A1.87225
G1 X9.978 Y-27.509 A1.89596 F600.000
G1 X10.489 Y-27.463 A1.92180
G1 X10.961 Y-27.320 A1.94668
G1 X11.395 Y-27.088 A1.97150
G1 X11.776 Y-26.776 A1.99631
G1 X12.088 Y-26.395 A2.02113
G1 X12.320 Y-25.961 A2.04595
G1 X12.463 Y-25.490 A2.07076
G1 X12.511 Y-25.000 A2.09558
G1 X12.463 Y-24.510 A2.12040
G1 X12.320 Y-24.039 A2.14521
G1 X12.088 Y-23.605 A2.17003
G1 X11.776 Y-23.224 A2.19485
G1 X11.395 Y-22.912 A2.21966
G1 X10.961 Y-22.680 A2.24448
G1 X10.490 Y-22.537 A2.26929
G1 X10.060 Y-22.495 A2.29109
G1 X-2.240 Y-20.307 F9600.000
G1 X-2.240 Y-24.987 A2.52702 F840.000
G1 X-2.004 Y-27.388 A2.64861
G1 X-1.307 Y-29.684 A2.76956
G1 X-0.176 Y-31.799 A2.89050
G1 X1.346 Y-33.654 A3.01145
G1 X3.201 Y-35.176 A3.13240
G1 X5.316 Y-36.307 A3.25334
G1 X7.612 Y-37.004 A3.37428
G1 X10.000 Y-37.239 A3.49523
G1 X12.388 Y-37.004 A3.61617
G1 X14.684 Y-36.307 A3.73712
G1 X16.799 Y-35.176 A3.85806
G1 X18.654 Y-33.654 A3.97901
G1 X20.176 Y-31.799 A4.09996
G1 X21.307 Y-29.684 A4.22090
G1 X22.004 Y-27.388 A4.34184
G1 X22.240 Y-24.987 A4.46344
G1 X22.240 Y24.991 A6.98288
G1 X22.135 Y26.598 A7.06401
G1 X21.822 Y28.168 A7.14472
G1 X21.308 Y29.684 A7.22542
G1 X20.600 Y31.120 A7.30613
G1 X19.710 Y32.451 A7.38684
G1 X18.655 Y33.655 A7.46754
G1 X17.451 Y34.710 A7.54825
G1 X16.120 Y35.600 A7.62896
G1 X14.684 Y36.308 A7.70967
G1 X13.168 Y36.822 A7.79037
G1 X11.598 Y37.135 A7.87108
G1 X10.000 Y37.239 A7.95178
G1 X8.402 Y37.135 A8.03249
G1 X6.832 Y36.822 A8.11320
G1 X5.316 Y36.308 A8.19390
G1 X3.880 Y35.600 A8.27461
G1 X2.549 Y34.710 A8.35532
G1 X1.345 Y33.655 A8.43603
G1 X0.290 Y32.451 A8.51669
G1 X-0.633 Y31.051 A8.60126
G1 X-1.308 Y29.684 A8.67811
G1 X-1.822 Y28.168 A8.75882
G1 X-2.135 Y26.598 A8.83952
G1 X-2.240 Y24.991 A8.92066
G1 X-2.240 Y20.307 A9.15681
G1 X-1.673 Y20.104 A9.18719
G1 X0.258 Y19.191 A9.29484
G1 X2.089 Y18.093 A9.40248
G1 X3.805 Y16.821 A9.51014
G1 X5.387 Y15.387 A9.61778
G1 X6.821 Y13.805 A9.72543
G1 X8.093 Y12.089 A9.83308
G1 X9.191 Y10.258 A9.94073
G1 X10.104 Y8.327 A10.04838
G1 X10.823 Y6.317 A10.15603
G1 X10.858 Y6.177 A10.16330
G1 X11.222 Y6.141 A10.18170
G1 X12.396 Y5.785 A10.24357
G1 X13.479 Y5.206 A10.30544
G1 X14.427 Y4.427 A10.36732
G1 X15.206 Y3.479 A10.42919
G1 X15.785 Y2.396 A10.49107
G1 X16.141 Y1.222 A10.55294
G1 X16.261 Y0.000 A10.61482
G1 X16.141 Y-1.222 A10.67669
G1 X15.785 Y-2.396 A10.73857
G1 X15.206 Y-3.479 A10.80044
G1 X14.427 Y-4.427 A10.86232
G1 X13.479 Y-5.206 A10.92419
G1 X12.396 Y-5.785 A10.98607
G1 X11.222 Y-6.141 A11.04794
G1 X10.858 Y-6.177 A11.06633
G1 X10.823 Y-6.317 A11.07361
G1 X10.104 Y-8.327 A11.18126
G1 X9.191 Y-10.258 A11.28890
G1 X8.093 Y-12.089 A11.39656
G1 X6.821 Y-13.805 A11.50421
G1 X5.387 Y-15.387 A11.61185
G1 X3.805 Y-16.821 A11.71950
G1 X2.089 Y-18.093 A11.82715
G1 X0.258 Y-19.191 A11.93480
G1 X-1.673 Y-20.104 A12.04245
G1 X-2.184 Y-20.287 A12.06980
G1 X-0.159 Y-19.659 F9600.000
G1 X15.681 Y-35.499 A13.20441 F1800.000
G1 X15.250 Y-35.730 A13.22921
G1 X-0.609 Y-19.871 A14.36511
G1 X-1.059 Y-20.084 A14.39031
G1 X14.818 Y-35.960 A15.52750
G1 X14.341 Y-36.147 A15.55341
G1 X-1.509 Y-20.297 A16.68870
G1 X-1.963 Y-20.506 A16.71401
G1 X13.833 Y-36.301 A17.84540
G1 X13.324 Y-36.455 A17.87231
G1 X-1.963 Y-21.168 A18.96728
G1 X-1.963 Y-21.831 A19.00084
G1 X12.816 Y-36.609 A20.05940
G1 X12.288 Y-36.744 A20.08700
G1 X-1.963 Y-22.493 A21.10773
G1 X-1.963 Y-23.156 A21.14129
G1 X11.685 Y-36.803 A22.11882
G1 X11.081 Y-36.863 A22.14952
G1 X-1.963 Y-23.819 A23.08383
G1 X-1.963 Y-24.481 A23.11740
G1 X10.478 Y-36.922 A24.00851
G1 X9.826 Y-36.933 A24.04154
G1 X-1.933 Y-25.174 A24.88379
G1 X-1.860 Y-25.909 A24.92120
G1 X9.091 Y-36.860 A25.70562
G1 X8.356 Y-36.788 A25.74303
G1 X-1.788 Y-26.644 A26.46961
G1 X-1.667 Y-27.427 A26.50975
G1 X7.573 Y-36.667 A27.17158
G1 X6.622 Y-36.379 A27.22193
G1 X-1.379 Y-28.378 A27.79497
G1 X-1.090 Y-29.330 A27.84531
G1 X5.670 Y-36.090 A28.32955
G1 X4.302 Y-35.384 F9600.000
G1 X-0.384 Y-30.698 A28.66518 F1800.000
G1 X1.385 Y-33.130 F9600.000
G1 X1.870 Y-33.615 A28.69995 F1800.000
G1 X4.923 Y-16.126 F9600.000
G1 X11.251 Y-22.454 A29.15320 F1800.000
G1 X10.370 Y-22.236 A29.19915
G1 X4.576 Y-16.441 A29.61422
G1 X4.228 Y-16.757 A29.63798
G1 X9.718 Y-22.247 A30.03124
G1 X9.181 Y-22.372 A30.05918
G1 X3.874 Y-17.065 A30.43931
G1 X3.494 Y-17.348 A30.46330
G1 X8.721 Y-22.575 A30.83771
G1 X8.321 Y-22.838 A30.86194
G1 X3.113 Y-17.630 A31.23498
G1 X2.733 Y-17.912 A31.25897
G1 X7.975 Y-23.154 A31.63445
G1 X7.681 Y-23.523 A31.65833
G1 X2.353 Y-18.194 A32.04000
G1 X1.952 Y-18.456 A32.06425
G1 X7.450 Y-23.954 A32.45808
G1 X7.289 Y-24.456 A32.48476
G1 X1.537 Y-18.704 A32.89674
G1 X1.123 Y-18.953 A32.92120
G1 X7.215 Y-25.044 A33.35754
G1 X7.306 Y-25.798 A33.39600
G1 X0.709 Y-19.201 A33.86855
G1 X0.291 Y-19.446 A33.89308
G1 X16.113 Y-35.268 A35.02640
G1 X16.545 Y-35.037 A35.05120
G1 X9.202 Y-27.694 A35.57719
G1 X9.952 Y-27.782 A35.61545
G1 X16.931 Y-34.761 A36.11538
G1 X17.295 Y-34.462 A36.13923
G1 X10.544 Y-27.711 A36.62282
G1 X11.046 Y-27.550 A36.64949
G1 X17.659 Y-34.164 A37.12323
G1 X18.023 Y-33.865 A37.14708
G1 X11.477 Y-27.319 A37.61595
G1 X11.846 Y-27.025 A37.63983
G1 X18.382 Y-33.561 A38.10799
G1 X18.704 Y-33.220 A38.13173
G1 X12.162 Y-26.679 A38.60027
G1 X12.425 Y-26.279 A38.62451
G1 X19.002 Y-32.856 A39.09561
G1 X19.301 Y-32.492 A39.11946
G1 X12.628 Y-25.819 A39.59746
G1 X12.753 Y-25.282 A39.62540
G1 X19.600 Y-32.128 A40.11581
G1 X19.898 Y-31.764 A40.13965
G1 X12.764 Y-24.630 A40.65069
G1 X12.546 Y-23.749 A40.69664
G1 X20.143 Y-31.347 A41.24083
G1 X20.374 Y-30.915 A41.26563
G1 X5.271 Y-15.811 A42.34745
G1 X5.612 Y-15.490 A42.37119
G1 X20.605 Y-30.483 A43.44508
G1 X20.836 Y-30.051 A43.46988
G1 X5.927 Y-15.143 A44.53773
G1 X6.243 Y-14.795 A44.56149
G1 X21.063 Y-29.616 A45.62307
G1 X21.217 Y-29.108 A45.64998
G1 X6.558 Y-14.448 A46.70004
G1 X6.873 Y-14.100 A46.72380
G1 X21.372 Y-28.599 A47.76234
G1 X21.526 Y-28.091 A47.78925
G1 X7.169 Y-13.734 A48.81758
G1 X7.452 Y-13.354 A48.84157
G1 X21.680 Y-27.582 A49.86073
G1 X21.771 Y-27.011 A49.89004
G1 X7.734 Y-12.973 A50.89551
G1 X8.016 Y-12.593 A50.91950
G1 X21.831 Y-26.407 A51.90902
G1 X21.890 Y-25.804 A51.93972
G1 X8.298 Y-12.212 A52.91328
G1 X8.548 Y-11.799 A52.93772
G1 X21.949 Y-25.201 A53.89767
G1 X21.963 Y-24.551 A53.93057
G1 X8.796 Y-11.385 A54.87367
G1 X9.044 Y-10.971 A54.89814
G1 X21.963 Y-23.889 A55.82345
G1 X21.963 Y-23.226 A55.85701
G1 X9.293 Y-10.556 A56.76454
G1 X9.524 Y-10.125 A56.78932
G1 X21.963 Y-22.564 A57.68026
G1 X21.963 Y-21.901 A57.71382
G1 X9.737 Y-9.675 A58.58952
G1 X9.950 Y-9.225 A58.61472
G1 X21.963 Y-21.238 A59.47518
G1 X21.963 Y-20.576 A59.50874
G1 X10.163 Y-8.776 A60.35395
G1 X10.371 Y-8.322 A60.37926
G1 X21.963 Y-19.913 A61.20951
G1 X21.963 Y-19.250 A61.24308
G1 X10.546 Y-7.834 A62.06083
G1 X10.721 Y-7.346 A62.08708
G1 X21.963 Y-18.588 A62.89232
G1 X21.963 Y-17.925 A62.92588
G1 X10.895 Y-6.858 A63.71862
G1 X11.121 Y-6.420 A63.74354
G1 X21.963 Y-17.262 A64.52013
G1 X21.963 Y-16.600 A64.55369
G1 X11.641 Y-6.278 A65.29302
G1 X12.149 Y-6.124 A65.31993
G1 X21.963 Y-15.937 A66.02283
G1 X21.963 Y-15.275 A66.05639
G1 X12.625 Y-5.937 A66.72521
G1 X13.057 Y-5.706 A66.75001
G1 X21.963 Y-14.612 A67.38790
G1 X21.963 Y-13.949 A67.42146
G1 X13.489 Y-5.476 A68.02842
G1 X13.869 Y-5.193 A68.05240
G1 X21.963 Y-13.287 A68.63216
G1 X21.963 Y-12.624 A68.66572
G1 X14.233 Y-4.894 A69.21940
G1 X14.596 Y-4.595 A69.24325
G1 X21.963 Y-11.961 A69.77087
G1 X21.963 Y-11.299 A69.80443
G1 X14.895 Y-4.231 A70.31066
G1 X15.194 Y-3.867 A70.33451
G1 X21.963 Y-10.636 A70.81934
G1 X21.963 Y-9.973 A70.85290
G1 X15.476 Y-3.487 A71.31749
G1 X15.707 Y-3.055 A71.34229
G1 X21.963 Y-9.311 A71.79035
G1 X21.963 Y-8.648 A71.82391
G1 X15.938 Y-2.624 A72.25544
G1 X16.124 Y-2.147 A72.28134
G1 X21.963 Y-7.986 A72.69952
G1 X21.963 Y-7.323 A72.73308
G1 X16.279 Y-1.639 A73.14020
G1 X16.421 Y-1.118 A73.16754
G1 X21.963 Y-6.660 A73.56449
G1 X21.963 Y-5.998 A73.59805
G1 X16.480 Y-0.515 A73.99076
G1 X16.539 Y0.088 A74.02146
G1 X21.963 Y-5.335 A74.40990
G1 X21.963 Y-4.672 A74.44346
G1 X16.469 Y0.821 A74.83693
G1 X16.350 Y1.603 A74.87702
G1 X21.963 Y-4.010 A75.27907
G1 X21.963 Y-3.347 A75.31264
G1 X16.061 Y2.555 A75.73535
G1 X15.106 Y4.172 F9600.000
G1 X21.963 Y-2.684 A76.22647 F1800.000
G1 X21.963 Y-2.022 A76.26003
G1 X9.440 Y10.500 A77.15698
G1 X10.035 Y9.243 F9600.000
G1 X14.172 Y5.106 A77.45332 F1800.000
G1 X10.894 Y7.059 F9600.000
G1 X11.603 Y6.350 A77.50413 F1800.000
G1 X12.555 Y6.061 A77.55447
G1 X10.525 Y8.091 A77.69986
G1 X8.460 Y12.144 F9600.000
G1 X21.963 Y-1.359 A78.66704 F1800.000
G1 X21.963 Y-0.697 A78.70061
G1 X-1.963 Y23.229 A80.41432
G1 X-1.963 Y23.891 A80.44788
G1 X21.963 Y-0.034 A82.16159
G1 X21.963 Y0.629 A82.19515
G1 X-1.963 Y24.554 A83.90886
G1 X-1.954 Y25.208 A83.94199
G1 X21.963 Y1.291 A85.65509
G1 X21.963 Y1.954 A85.68865
G1 X-1.913 Y25.830 A87.39884
G1 X-1.873 Y26.452 A87.43040
G1 X21.963 Y2.617 A89.13767
G1 X21.963 Y3.279 A89.17123
G1 X-1.784 Y27.026 A90.87217
G1 X-1.674 Y27.579 A90.90072
G1 X21.963 Y3.942 A92.59379
G1 X21.963 Y4.605 A92.62735
G1 X-1.564 Y28.132 A94.31254
G1 X-1.400 Y28.630 A94.33913
G1 X21.963 Y5.267 A96.01258
G1 X21.963 Y5.930 A96.04614
G1 X-1.233 Y29.125 A97.70756
G1 X-1.065 Y29.620 A97.73402
G1 X21.963 Y6.593 A99.38341
G1 X21.963 Y7.255 A99.41697
G1 X-0.848 Y30.065 A101.05083
G1 X-0.629 Y30.509 A101.07589
G1 X21.963 Y7.918 A102.69406
G1 X21.963 Y16.532 F9600.000
G1 X12.693 Y25.802 A103.35804 F1800.000
G1 X12.785 Y25.047 A103.39658
G1 X21.963 Y15.869 A104.05392
G1 X21.963 Y15.207 A104.08748
G1 X12.712 Y24.458 A104.75011
G1 X12.551 Y23.956 A104.77680
G1 X21.963 Y14.544 A105.45096
G1 X21.963 Y13.882 A105.48452
G1 X12.320 Y23.524 A106.17520
G1 X12.026 Y23.155 A106.19909
G1 X21.963 Y13.219 A106.91082
G1 X21.963 Y12.556 A106.94438
G1 X11.680 Y22.839 A107.68091
G1 X11.280 Y22.576 A107.70514
G1 X21.963 Y11.894 A108.47028
G1 X21.963 Y11.231 A108.50384
G1 X10.821 Y22.373 A109.30192
G1 X10.283 Y22.248 A109.32988
G1 X21.963 Y10.568 A110.16648
G1 X21.963 Y9.906 A110.20004
G1 X9.632 Y22.236 A111.08323
G1 X8.754 Y22.451 A111.12903
G1 X21.963 Y9.243 A112.07512
G1 X21.963 Y8.580 A112.10868
G1 X-0.410 Y30.953 A113.71118
G1 X-0.148 Y31.353 A113.73542
G1 X7.451 Y23.754 A114.27972
G1 X7.236 Y24.632 A114.32552
G1 X0.116 Y31.752 A114.83552
G1 X0.379 Y32.152 A114.85974
G1 X7.247 Y25.284 A115.35168
G1 X7.373 Y25.821 A115.37961
G1 X0.669 Y32.524 A115.85979
G1 X0.979 Y32.877 A115.88357
G1 X7.576 Y26.280 A116.35609
G1 X7.839 Y26.680 A116.38032
G1 X1.288 Y33.230 A116.84952
G1 X1.618 Y33.563 A116.87325
G1 X8.155 Y27.026 A117.34151
G1 X8.524 Y27.320 A117.36539
G1 X1.963 Y33.881 A117.83536
G1 X2.316 Y34.191 A117.85915
G1 X8.956 Y27.551 A118.33476
G1 X9.458 Y27.712 A118.36145
G1 X2.669 Y34.500 A118.84772
G1 X3.065 Y34.767 A118.87190
G1 X10.047 Y27.785 A119.37199
G1 X10.802 Y27.693 A119.41053
G1 X3.462 Y35.033 A119.93626
G1 X3.859 Y35.298 A119.96046
G1 X21.963 Y17.195 A121.25716
G1 X21.963 Y17.857 A121.29072
G1 X4.290 Y35.530 A122.55657
G1 X4.734 Y35.749 A122.58163
G1 X21.963 Y18.520 A123.81569
G1 X21.963 Y19.183 A123.84925
G1 X5.178 Y35.968 A125.05152
G1 X5.651 Y36.157 A125.07735
G1 X21.963 Y19.845 A126.24570
G1 X21.963 Y20.508 A126.27926
G1 X6.146 Y36.324 A127.41217
G1 X6.641 Y36.492 A127.43863
G1 X21.963 Y21.171 A128.53611
G1 X21.963 Y21.833 A128.56967
G1 X7.171 Y36.625 A129.62916
G1 X7.724 Y36.735 A129.65770
G1 X21.963 Y22.496 A130.67760
G1 X21.963 Y23.158 A130.71116
G1 X8.276 Y36.845 A131.69147
G1 X8.889 Y36.895 A131.72259
G1 X21.963 Y23.821 A132.65904
G1 X21.963 Y24.484 A132.69260
G1 X9.511 Y36.936 A133.58451
G1 X10.165 Y36.944 A133.61765
G1 X21.944 Y25.165 A134.46135
G1 X21.897 Y25.874 A134.49734
G1 X10.874 Y36.897 A135.28692
G1 X11.606 Y36.829 A135.32413
G1 X21.829 Y26.605 A136.05640
G1 X21.664 Y27.433 A136.09911
G1 X12.433 Y36.664 A136.76035
G1 X13.321 Y36.438 A136.80678
G1 X21.438 Y28.321 A137.38818
G1 X21.098 Y29.324 F9600.000
G1 X14.324 Y36.098 A137.87333 F1800.000
G1 X15.597 Y35.488 F9600.000
G1 X20.488 Y30.597 A138.22370 F1800.000
G1 X18.689 Y33.058 F9600.000
G1 X18.058 Y33.689 A138.26885 F1800.000
G1 F7680
G1 X18.689 Y33.058 A138.10343
G1 A136.76885 F1500.00000
G92 A0
G1 Z0.850 F9600.000
G1 X2.144 Y18.460 F9600.000
G1 Z0.550 F9600.000
G1 A1.50000 F1500.00000
G1 X-1.963 Y22.566 A1.79413 F1800.000
G1 X-1.963 Y21.903 A1.82769
G1 X0.500 Y19.440 A2.00412
G1 X-0.757 Y20.035 F9600.000
G1 X-1.963 Y21.241 A2.09048 F1800.000
G1 F7680
G1 X-0.757 Y20.035 A1.77409
G1 A0.59048 F1500.00000
G92 A0
G1 Z0.850 F9600.000
G1 X-9.699 Y-6.232 F9600.000
G1 Z0.550 F9600.000
G1 A1.50000 F1500.00000
G1 X-10.000 Y-6.261 A1.51527 F840.000
G1 X-11.221 Y-6.141 A1.57714
G1 X-12.396 Y-5.785 A1.63902
G1 X-13.479 Y-5.206 A1.70089
G1 X-14.427 Y-4.427 A1.76277
G1 X-15.206 Y-3.479 A1.82464
G1 X-15.785 Y-2.396 A1.88652
G1 X-16.141 Y-1.222 A1.94839
G1 X-16.261 Y0.000 A2.01027
G1 X-16.141 Y1.222 A2.07214
G1 X-15.785 Y2.396 A2.13402
G1 X-15.206 Y3.479 A2.19589
G1 X-14.427 Y4.427 A2.25777
G1 X-13.479 Y5.206 A2.31964
G1 X-12.396 Y5.785 A2.38151
G1 X-11.221 Y6.141 A2.44339
G1 X-10.000 Y6.261 A2.50526
G1 X-9.699 Y6.232 A2.52053
G1 X-10.377 Y8.128 A2.62207
G1 X-11.268 Y10.012 A2.72715
G1 X-12.340 Y11.800 A2.83222
G1 X-13.582 Y13.474 A2.93730
G1 X-14.981 Y15.019 A3.04237
G1 X-16.526 Y16.418 A3.14744
G1 X-18.200 Y17.660 A3.25251
G1 X-19.988 Y18.732 A3.35759
G1 X-21.872 Y19.623 A3.46266
G1 X-22.240 Y19.755 A3.48237
G1 X-22.240 Y-19.755 A5.47404
G1 X-21.906 Y-19.635 A5.49192
G1 X-19.988 Y-18.732 A5.59882
G1 X-18.200 Y-17.660 A5.70388
G1 X-16.526 Y-16.418 A5.80896
G1 X-14.981 Y-15.019 A5.91403
G1 X-13.582 Y-13.474 A6.01910
G1 X-12.340 Y-11.800 A6.12417
G1 X-11.268 Y-10.012 A6.22925
G1 X-10.377 Y-8.128 A6.33432
G1 X-9.719 Y-6.288 A6.43284
G1 X-10.629 Y-6.488 F9600.000
G1 X-10.207 Y-6.910 A6.46310 F1800.000
G1 X-10.382 Y-7.399 A6.48944
G1 X-11.365 Y-6.416 A6.55999
G1 X-12.309 Y-6.135 A6.60995
G1 X-10.557 Y-7.888 A6.73568
G1 X-13.571 Y-5.538 F9600.000
G1 X-10.754 Y-8.354 A6.93773 F1800.000
G1 X-10.968 Y-8.804 A6.96302
G1 X-21.963 Y2.191 A7.75186
G1 X-21.963 Y1.527 A7.78554
G1 X-11.181 Y-9.255 A8.55909
G1 X-11.394 Y-9.706 A8.58438
G1 X-21.963 Y0.863 A9.34264
G1 X-21.963 Y0.199 A9.37632
G1 X-11.625 Y-10.139 A10.11803
G1 X-11.873 Y-10.554 A10.14257
G1 X-21.963 Y-0.464 A10.86644
G1 X-21.963 Y-1.128 A10.90011
G1 X-12.122 Y-10.969 A11.60613
G1 X-12.371 Y-11.384 A11.63068
G1 X-21.963 Y-1.792 A12.31885
G1 X-21.963 Y-2.455 A12.35253
G1 X-12.628 Y-11.790 A13.02222
G1 X-12.911 Y-12.171 A13.04629
G1 X-21.963 Y-3.119 A13.69570
G1 X-21.963 Y-3.783 A13.72938
G1 X-13.194 Y-12.552 A14.35851
G1 X-13.476 Y-12.933 A14.38258
G1 X-21.963 Y-4.447 A14.99144
G1 X-21.963 Y-5.110 A15.02511
G1 X-13.759 Y-13.314 A15.61369
G1 X-14.073 Y-13.664 A15.63754
G1 X-21.963 Y-5.774 A16.20360
G1 X-21.963 Y-6.438 A16.23727
G1 X-14.388 Y-14.012 A16.78070
G1 X-14.704 Y-14.360 A16.80454
G1 X-21.963 Y-7.102 A17.32532
G1 X-21.963 Y-7.765 A17.35899
G1 X-15.027 Y-14.701 A17.85660
G1 X-15.359 Y-15.033 A17.88041
G1 X-21.963 Y-8.429 A18.35420
G1 X-21.963 Y-9.093 A18.38788
G1 X-15.702 Y-15.353 A18.83702
G1 X-16.051 Y-15.668 A18.86086
G1 X-21.963 Y-9.756 A19.28502
G1 X-21.963 Y-10.420 A19.31869
G1 X-16.399 Y-15.984 A19.71788
G1 X-16.755 Y-16.292 A19.74175
G1 X-21.963 Y-11.084 A20.11540
G1 X-21.963 Y-11.748 A20.14908
G1 X-17.136 Y-16.575 A20.49539
G1 X-17.517 Y-16.857 A20.51946
G1 X-21.963 Y-12.411 A20.83843
G1 X-21.963 Y-13.075 A20.87210
G1 X-17.898 Y-17.140 A21.16373
G1 X-18.279 Y-17.423 A21.18780
G1 X-21.963 Y-13.739 A21.45209
G1 X-21.963 Y-14.403 A21.48576
G1 X-18.691 Y-17.674 A21.72047
G1 X-19.106 Y-17.923 A21.74502
G1 X-21.963 Y-15.066 A21.94996
G1 X-21.963 Y-15.730 A21.98363
G1 X-19.521 Y-18.171 A22.15879
G1 X-19.936 Y-18.420 A22.18334
G1 X-21.963 Y-16.394 A22.32873
G1 X-21.963 Y-17.058 A22.36240
G1 X-20.376 Y-18.644 A22.47623
G1 X-20.827 Y-18.857 A22.50153
G1 X-21.963 Y-17.721 A22.58299
G1 X-21.963 Y-18.385 A22.61666
G1 X-21.278 Y-19.069 A22.66574
G1 X-21.730 Y-19.282 A22.69104
G1 X-21.963 Y-19.049 A22.70775
G1 X-15.538 Y-3.571 F9600.000
G1 X-21.963 Y2.854 A23.16872 F1800.000
G1 X-21.963 Y3.518 A23.20239
G1 X-16.135 Y-2.309 A23.62046
G1 X-16.416 Y-1.365 A23.67042
G1 X-21.963 Y4.182 A24.06838
G1 X-21.963 Y4.846 A24.10205
G1 X-16.488 Y-0.629 A24.49480
G1 X-16.524 Y0.071 A24.53032
G1 X-21.963 Y5.509 A24.92053
G1 X-21.963 Y6.173 A24.95420
G1 X-16.464 Y0.675 A25.34868
G1 X-16.392 Y1.266 A25.37889
G1 X-21.963 Y6.837 A25.77857
G1 X-21.963 Y7.500 A25.81225
G1 X-16.237 Y1.775 A26.22301
G1 X-16.083 Y2.285 A26.25000
G1 X-21.963 Y8.164 A26.67185
G1 X-21.963 Y8.828 A26.70552
G1 X-15.875 Y2.741 A27.14225
G1 X-15.644 Y3.173 A27.16713
G1 X-21.963 Y9.492 A27.62045
G1 X-21.963 Y10.155 A27.65412
G1 X-15.410 Y3.603 A28.12421
G1 X-15.111 Y3.968 A28.14813
G1 X-21.963 Y10.819 A28.63969
G1 X-21.963 Y11.483 A28.67336
G1 X-14.812 Y4.332 A29.18638
G1 X-14.495 Y4.679 A29.21021
G1 X-21.963 Y12.147 A29.74599
G1 X-21.963 Y12.810 A29.77966
G1 X-14.130 Y4.978 A30.34160
G1 X-13.766 Y5.277 A30.36553
G1 X-21.963 Y13.474 A30.95362
G1 X-21.963 Y14.138 A30.98729
G1 X-13.366 Y5.541 A31.60406
G1 X-12.933 Y5.772 A31.62894
G1 X-21.963 Y14.801 A32.27675
G1 X-21.963 Y15.465 A32.31042
G1 X-12.501 Y6.004 A32.98925
G1 X-12.002 Y6.169 A33.01591
G1 X-21.963 Y16.129 A33.73053
G1 X-21.963 Y16.793 A33.76420
G1 X-11.493 Y6.323 A34.51536
G1 X-10.944 Y6.438 A34.54381
G1 X-21.963 Y17.456 A35.33435
G1 X-21.963 Y18.120 A35.36802
G1 X-10.340 Y6.497 A36.20191
G1 X-10.383 Y7.204 A36.23783
G1 X-21.963 Y18.784 A37.06864
G1 X-21.685 Y19.170 A37.09277
G1 X-10.830 Y8.315 A37.87164
G1 X-11.425 Y9.574 F9600.000
G1 X-20.426 Y18.575 A38.51742 F1800.000
G1 X-18.820 Y17.633 F9600.000
G1 X-12.367 Y11.180 A38.98044 F1800.000
G1 X-14.875 Y14.351 F9600.000
G1 X-15.649 Y15.125 A39.03599 F1800.000
G1 Z0.650 F9600.000
G1 A37.53599 F1500.00000
G92 A0
G1 Z0.950 F9600.000
G1 X24.034 Y13.376 F9600.000
G1 Z0.650 F9600.000
G1 A1.50000 F1500.00000
G1 X22.991 Y13.376 A1.52445 F2400.000
G1 X22.991 Y12.185 A1.55236
G1 X24.034 Y12.185 A1.57681
G1 X24.034 Y10.993 A1.60472
G1 X22.991 Y10.993 A1.62917
G1 X22.991 Y9.802 A1.65708
G1 X24.034 Y9.802 A1.68153
G1 X24.137 Y14.409 F9600.000
G1 X24.137 Y9.591 A1.79440 F2400.000
G1 X22.882 Y9.591 A1.82381
G1 X22.882 Y10.571 A1.84677
G1 X22.868 Y10.571 A1.84712
G1 X22.882 Y14.409 A1.93703
G1 X24.137 Y14.409 A1.96643
G1 F7680
G1 X22.882 Y14.409 A1.73357
G1 F7680
G1 X22.868 Y10.571 A1.02153
G1 F7680
G1 X22.882 Y10.571 A1.01875
G1 F7680
G1 X22.882 Y9.591 A0.83691
G1 F7680
G1 X24.137 Y9.591 A0.60405
G1 F7680
G1 X24.137 Y9.929 A0.54143
G1 A0.46643 F1500.00000
G92 A0
G1 Z0.950 F9600.000
G1 X24.137 Y-9.591 F9600.000
G1 Z0.650 F9600.000
G1 A1.50000 F1500.00000
G1 X24.137 Y-14.409 A1.61287 F2400.000
G1 X22.882 Y-14.409 A1.64227
G1 X22.882 Y-13.429 A1.66523
G1 X22.868 Y-13.429 A1.66558
G1 X22.882 Y-9.591 A1.75549
G1 X24.137 Y-9.591 A1.78490
G1 X24.034 Y-10.451 F9600.000
G1 X22.991 Y-10.451 A1.80935 F2400.000
G1 X22.991 Y-11.642 A1.83726
G1 X24.034 Y-11.642 A1.86171
G1 X24.034 Y-12.834 A1.88962
G1 X22.991 Y-12.834 A1.91407
G1 X22.991 Y-14.025 A1.94198
G1 X24.034 Y-14.025 A1.96643
G1 Z0.800 F9600.000
G1 A0.46643 F1500.00000
G92 A0
G1 Z1.100 F9600.000
G1 X8.605 Y22.912 F9600.000
G1 Z0.800 F9600.000
G1 A1.50000 F1500.00000
G1 X9.039 Y22.680 A1.52481 F600.000
G1 X9.510 Y22.537 A1.54963
G1 X9.965 Y22.492 A1.57269 F600.000
G1 X10.488 Y22.536 A1.59915
G1 X10.961 Y22.680 A1.62405
G1 X11.395 Y22.912 A1.64887
G1 X11.776 Y23.224 A1.67369
G1 X12.088 Y23.605 A1.69850
G1 X12.320 Y24.039 A1.72332
G1 X12.463 Y24.510 A1.74813
G1 X12.511 Y25.000 A1.77295
G1 X12.463 Y25.490 A1.79777
G1 X12.320 Y25.961 A1.82258
G1 X12.088 Y26.395 A1.84740
G1 X11.776 Y26.776 A1.87222
G1 X11.395 Y27.088 A1.89704
G1 X10.961 Y27.320 A1.92185
G1 X10.490 Y27.463 A1.94667
G1 X10.000 Y27.511 A1.97149
G1 X9.510 Y27.463 A1.99630
G1 X9.039 Y27.320 A2.02112
G1 X8.605 Y27.088 A2.04593
G1 X8.224 Y26.776 A2.07075
G1 X7.912 Y26.395 A2.09557
G1 X7.680 Y25.961 A2.12039
G1 X7.537 Y25.490 A2.14520
G1 X7.489 Y25.000 A2.17002
G1 X7.537 Y24.510 A2.19484
G1 X7.680 Y24.039 A2.21965
G1 X7.912 Y23.605 A2.24447
G1 X8.224 Y23.224 A2.26928
G1 X8.558 Y22.950 A2.29108
G1 F7680
G1 X9.039 Y22.680 A2.18880
G1 F7680
G1 X9.510 Y22.537 A2.09745
G1 A0.79108 F1500.00000
G92 A0
G1 Z1.100 F9600.000
G1 X10.000 Y-22.489 F9600.000
G1 Z0.800 F9600.000
G1 A1.50000 F1500.00000
G1 X9.510 Y-22.537 A1.52482 F600.000
G1 X9.039 Y-22.680 A1.54963
G1 X8.605 Y-22.912 A1.57445
G1 X8.224 Y-23.224 A1.59927
G1 X7.912 Y-23.605 A1.62408
G1 X7.680 Y-24.039 A1.64890
G1 X7.537 Y-24.510 A1.67371
G1 X7.489 Y-25.000 A1.69853
G1 X7.537 Y-25.490 A1.72335
G1 X7.680 Y-25.961 A1.74816
G1 X7.912 Y-26.395 A1.77298
G1 X8.224 Y-26.776 A1.79780
G1 X8.605 Y-27.088 A1.82262
G1 X9.039 Y-27.320 A1.84743
G1 X9.510 Y-27.463 A1.87225
G1 X9.965 Y-27.508 A1.89531 F600.000
G1 X10.488 Y-27.464 A1.92176
G1 X10.961 Y-27.320 A1.94667
G1 X11.395 Y-27.088 A1.97149
G1 X11.776 Y-26.776 A1.99630
G1 X12.088 Y-26.395 A2.02112
G1 X12.320 Y-25.961 A2.04594
G1 X12.463 Y-25.490 A2.07075
G1 X12.511 Y-25.000 A2.09557
G1 X12.463 Y-24.510 A2.12039
G1 X12.320 Y-24.039 A2.14520
G1 X12.088 Y-23.605 A2.17002
G1 X11.776 Y-23.224 A2.19483
G1 X11.395 Y-22.912 A2.21965
G1 X10.961 Y-22.680 A2.24447
G1 X10.490 Y-22.537 A2.26928
G1 X10.060 Y-22.495 A2.29108
G1 X-2.240 Y-20.307 F9600.000
G1 X-2.240 Y-24.987 A2.52701 F840.000
G1 X-2.004 Y-27.388 A2.64860
G1 X-1.307 Y-29.684 A2.76955
G1 X-0.176 Y-31.799 A2.89049
G1 X1.346 Y-33.654 A3.01144
G1 X3.201 Y-35.176 A3.13238
G1 X5.316 Y-36.307 A3.25333
G1 X7.612 Y-37.004 A3.37427
G1 X10.000 Y-37.239 A3.49522
G1 X12.388 Y-37.004 A3.61616
G1 X14.684 Y-36.307 A3.73711
G1 X16.799 Y-35.176 A3.85805
G1 X18.654 Y-33.654 A3.97900
G1 X20.176 Y-31.799 A4.09995
G1 X21.307 Y-29.684 A4.22089
G1 X22.004 Y-27.388 A4.34183
G1 X22.240 Y-24.987 A4.46343
G1 X22.240 Y24.991 A6.98287
G1 X22.135 Y26.598 A7.06400
G1 X21.822 Y28.168 A7.14471
G1 X21.308 Y29.684 A7.22541
G1 X20.600 Y31.120 A7.30612
G1 X19.710 Y32.451 A7.38683
G1 X18.655 Y33.655 A7.46753
G1 X17.451 Y34.710 A7.54824
G1 X16.120 Y35.600 A7.62895
G1 X14.684 Y36.308 A7.70965
G1 X13.168 Y36.822 A7.79036
G1 X11.598 Y37.135 A7.87107
G1 X10.000 Y37.239 A7.95177
G1 X8.402 Y37.135 A8.03248
G1 X6.832 Y36.822 A8.11319
G1 X5.316 Y36.308 A8.19389
G1 X3.880 Y35.600 A8.27460
G1 X2.549 Y34.710 A8.35531
G1 X1.345 Y33.655 A8.43602
G1 X0.290 Y32.451 A8.51672
G1 X-0.600 Y31.120 A8.59743
G1 X-1.308 Y29.684 A8.67814
G1 X-1.822 Y28.168 A8.75884
G1 X-2.135 Y26.598 A8.83955
G1 X-2.240 Y24.991 A8.92068
G1 X-2.240 Y20.307 A9.15683
G1 X-1.673 Y20.104 A9.18721
G1 X0.258 Y19.191 A9.29486
G1 X2.089 Y18.093 A9.40251
G1 X3.805 Y16.821 A9.51016
G1 X5.387 Y15.387 A9.61780
G1 X6.821 Y13.805 A9.72545
G1 X8.093 Y12.089 A9.83310
G1 X9.191 Y10.258 A9.94075
G1 X10.104 Y8.327 A10.04840
G1 X10.823 Y6.317 A10.15605
G1 X10.858 Y6.177 A10.16332
G1 X11.222 Y6.141 A10.18172
G1 X12.396 Y5.785 A10.24359
G1 X13.479 Y5.206 A10.30547
G1 X14.427 Y4.427 A10.36734
G1 X15.206 Y3.479 A10.42922
G1 X15.785 Y2.396 A10.49109
G1 X16.141 Y1.222 A10.55296
G1 X16.261 Y0.000 A10.61484
G1 X16.141 Y-1.222 A10.67671
G1 X15.785 Y-2.396 A10.73859
G1 X15.206 Y-3.479 A10.80046
G1 X14.427 Y-4.427 A10.86234
G1 X13.479 Y-5.206 A10.92421
G1 X12.396 Y-5.785 A10.98609
G1 X11.222 Y-6.141 A11.04796
G1 X10.858 Y-6.177 A11.06636
G1 X10.823 Y-6.317 A11.07363
G1 X10.104 Y-8.327 A11.18128
G1 X9.191 Y-10.258 A11.28893
G1 X8.093 Y-12.089 A11.39658
G1 X6.821 Y-13.805 A11.50423
G1 X5.387 Y-15.387 A11.61187
G1 X3.805 Y-16.821 A11.71952
G1 X2.089 Y-18.093 A11.82717
G1 X0.258 Y-19.191 A11.93482
G1 X-1.673 Y-20.104 A12.04247
G1 X-2.184 Y-20.287 A12.06982
G1 X-0.762 Y-20.037 F9600.000
G1 X-1.963 Y-21.238 A12.15584 F1800.000
G1 X-1.963 Y-21.901 A12.18941
G1 X0.496 Y-19.443 A12.36549
G1 X2.138 Y-18.463 F9600.000
G1 X-1.963 Y-22.563 A12.65917 F1800.000
G1 X-1.963 Y-23.226 A12.69274
G1 X5.292 Y-15.972 A13.21237
G1 X5.972 Y-15.292 F9600.000
G1 X21.963 Y0.699 A14.35776 F1800.000
G1 X21.963 Y0.036 A14.39132
G1 X-1.963 Y-23.889 A16.10503
G1 X-1.963 Y-24.551 A16.13859
G1 X21.963 Y-0.626 A17.85230
G1 X21.963 Y-1.289 A17.88587
G1 X-1.949 Y-25.201 A19.59864
G1 X-1.890 Y-25.804 A19.62934
G1 X21.963 Y-1.952 A21.33785
G1 X21.963 Y-2.614 A21.37141
G1 X-1.831 Y-26.407 A23.07567
G1 X-1.771 Y-27.011 A23.10637
G1 X21.963 Y-3.277 A24.80637
G1 X21.963 Y-3.939 A24.83993
G1 X-1.680 Y-27.582 A26.53342
G1 X-1.526 Y-28.091 A26.56033
G1 X21.963 Y-4.602 A28.24276
G1 X21.963 Y-5.265 A28.27633
G1 X-1.372 Y-28.599 A29.94772
G1 X-1.218 Y-29.107 A29.97463
G1 X21.963 Y-5.927 A31.63497
G1 X21.963 Y-6.590 A31.66853
G1 X-1.063 Y-29.616 A33.31783
G1 X-0.836 Y-30.051 A33.34270
G1 X21.963 Y-7.253 A34.97570
G1 X21.963 Y-7.915 A35.00926
G1 X-0.605 Y-30.483 A36.62573
G1 X3.455 Y-35.037 F9600.000
G1 X10.798 Y-27.694 A37.15172 F1800.000
G1 X10.594 Y-27.898 A37.16632
G1 X10.044 Y-27.785 A37.19476
G1 X3.068 Y-34.761 A37.69442
G1 X2.705 Y-34.462 A37.71827
G1 X9.456 Y-27.711 A38.20186
G1 X8.954 Y-27.550 A38.22853
G1 X2.341 Y-34.164 A38.70227
G1 X1.977 Y-33.865 A38.72612
G1 X8.523 Y-27.319 A39.19499
G1 X8.154 Y-27.025 A39.21887
G1 X1.618 Y-33.561 A39.68703
G1 X1.296 Y-33.220 A39.71077
G1 X7.838 Y-26.679 A40.17931
G1 X7.575 Y-26.279 A40.20354
G1 X0.998 Y-32.856 A40.67465
G1 X0.699 Y-32.492 A40.69850
G1 X7.372 Y-25.819 A41.17650
G1 X7.247 Y-25.281 A41.20444
G1 X0.400 Y-32.128 A41.69485
G1 X0.102 Y-31.764 A41.71870
G1 X7.236 Y-24.630 A42.22973
G1 X7.454 Y-23.749 A42.27569
G1 X-0.143 Y-31.346 A42.81989
G1 X-0.374 Y-30.915 A42.84469
G1 X21.963 Y-8.578 A44.44463
G1 X21.963 Y-9.241 A44.47819
G1 X8.749 Y-22.454 A45.42467
G1 X9.630 Y-22.236 A45.47062
G1 X21.963 Y-9.903 A46.35401
G1 X21.963 Y-10.566 A46.38758
G1 X10.281 Y-22.247 A47.22427
G1 X10.819 Y-22.372 A47.25221
G1 X21.963 Y-11.228 A48.05043
G1 X21.963 Y-11.891 A48.08399
G1 X11.279 Y-22.575 A48.84924
G1 X11.679 Y-22.838 A48.87347
G1 X21.963 Y-12.554 A49.61010
G1 X21.963 Y-13.216 A49.64366
G1 X12.025 Y-23.154 A50.35548
G1 X12.319 Y-23.523 A50.37936
G1 X21.963 Y-13.879 A51.07010
G1 X21.963 Y-14.542 A51.10367
G1 X12.550 Y-23.954 A51.77788
G1 X12.711 Y-24.456 A51.80456
G1 X21.963 Y-15.204 A52.46724
G1 X21.963 Y-15.867 A52.50080
G1 X12.785 Y-25.044 A53.15816
G1 X12.694 Y-25.798 A53.19662
G1 X21.963 Y-16.530 A53.86052
G1 X21.963 Y-17.192 A53.89408
G1 X3.887 Y-35.268 A55.18881
G1 X4.319 Y-35.499 A55.21361
G1 X21.963 Y-17.855 A56.47742
G1 X21.963 Y-18.517 A56.51098
G1 X4.750 Y-35.730 A57.74385
G1 X5.182 Y-35.960 A57.76865
G1 X21.963 Y-19.180 A58.97060
G1 X21.963 Y-19.843 A59.00416
G1 X5.659 Y-36.147 A60.17197
G1 X6.167 Y-36.301 A60.19888
G1 X21.963 Y-20.505 A61.33027
G1 X21.963 Y-21.168 A61.36384
G1 X6.676 Y-36.455 A62.45881
G1 X7.184 Y-36.609 A62.48572
G1 X21.963 Y-21.831 A63.54428
G1 X21.963 Y-22.493 A63.57785
G1 X7.712 Y-36.744 A64.59859
G1 X8.315 Y-36.803 A64.62929
G1 X21.963 Y-23.156 A65.60682
G1 X21.963 Y-23.819 A65.64038
G1 X8.918 Y-36.863 A66.57470
G1 X9.522 Y-36.922 A66.60540
G1 X21.963 Y-24.481 A67.49652
G1 X21.933 Y-25.174 A67.53163
G1 X10.174 Y-36.933 A68.37389
G1 X10.909 Y-36.860 A68.41130
G1 X21.860 Y-25.909 A69.19573
G1 X21.788 Y-26.644 A69.23313
G1 X11.644 Y-36.788 A69.95972
G1 X12.427 Y-36.667 A69.99986
G1 X21.667 Y-27.427 A70.66171
G1 X21.379 Y-28.378 A70.71205
G1 X13.378 Y-36.379 A71.28510
G1 X14.329 Y-36.090 A71.33545
G1 X21.090 Y-29.329 A71.81970
G1 X20.384 Y-30.698 F9600.000
G1 X15.698 Y-35.384 A72.15535 F1800.000
G1 X18.129 Y-33.616 F9600.000
G1 X18.616 Y-33.129 A72.19020 F1800.000
G1 X8.463 Y-12.138 F9600.000
G1 X21.963 Y1.362 A73.15712 F1800.000
G1 X21.963 Y2.024 A73.19068
G1 X9.443 Y-10.496 A74.08746
G1 X10.037 Y-9.238 F9600.000
G1 X14.158 Y-5.118 A74.38264 F1800.000
G1 X15.117 Y-4.158 F9600.000
G1 X21.963 Y2.687 A74.87294 F1800.000
G1 X21.963 Y3.350 A74.90650
G1 X16.062 Y-2.551 A75.32914
G1 X16.351 Y-1.600 A75.37948
G1 X21.963 Y4.012 A75.78146
G1 X21.963 Y4.675 A75.81502
G1 X16.470 Y-0.818 A76.20846
G1 X16.539 Y-0.086 A76.24571
G1 X21.963 Y5.337 A76.63417
G1 X21.963 Y6.000 A76.66774
G1 X16.480 Y0.517 A77.06045
G1 X16.420 Y1.121 A77.09115
G1 X21.963 Y6.663 A77.48813
G1 X21.963 Y7.325 A77.52169
G1 X16.278 Y1.641 A77.92885
G1 X16.124 Y2.149 A77.95576
G1 X21.963 Y7.988 A78.37398
G1 X21.963 Y8.651 A78.40754
G1 X15.937 Y2.625 A78.83913
G1 X15.706 Y3.057 A78.86393
G1 X21.963 Y9.313 A79.31205
G1 X21.963 Y9.976 A79.34561
G1 X15.475 Y3.489 A79.81027
G1 X15.193 Y3.869 A79.83425
G1 X21.963 Y10.639 A80.31917
G1 X21.963 Y11.301 A80.35273
G1 X14.894 Y4.233 A80.85904
G1 X14.595 Y4.596 A80.88288
G1 X21.963 Y11.964 A81.41060
G1 X21.963 Y12.626 A81.44416
G1 X14.231 Y4.895 A81.99794
G1 X13.867 Y5.194 A82.02179
G1 X21.963 Y13.289 A82.60164
G1 X21.963 Y13.952 A82.63520
G1 X13.487 Y5.476 A83.24227
G1 X13.055 Y5.707 A83.26707
G1 X21.963 Y14.614 A83.90508
G1 X21.963 Y15.277 A83.93864
G1 X12.624 Y5.938 A84.60757
G1 X12.147 Y6.124 A84.63348
G1 X21.963 Y15.940 A85.33652
G1 X21.963 Y16.602 A85.37008
G1 X11.639 Y6.279 A86.10954
G1 X11.118 Y6.421 A86.13688
G1 X21.963 Y17.265 A86.91364
G1 X21.963 Y17.928 A86.94720
G1 X10.895 Y6.860 A87.73998
G1 X10.720 Y7.348 A87.76623
G1 X21.963 Y18.590 A88.57152
G1 X21.963 Y19.253 A88.60509
G1 X10.545 Y7.836 A89.42288
G1 X10.371 Y8.324 A89.44914
G1 X21.963 Y19.916 A90.27944
G1 X21.963 Y20.578 A90.31300
G1 X10.162 Y8.777 A91.15828
G1 X9.949 Y9.227 A91.18348
G1 X21.963 Y21.241 A92.04399
G1 X21.963 Y21.903 A92.07755
G1 X9.736 Y9.677 A92.95331
G1 X9.523 Y10.127 A92.97851
G1 X21.963 Y22.566 A93.86951
G1 X21.963 Y23.229 A93.90307
G1 X9.292 Y10.558 A94.81066
G1 X9.043 Y10.972 A94.83513
G1 X21.963 Y23.891 A95.76051
G1 X21.963 Y24.554 A95.79407
G1 X8.795 Y11.386 A96.73724
G1 X8.547 Y11.801 A96.76170
G1 X21.954 Y25.208 A97.72205
G1 X21.913 Y25.830 A97.75361
G1 X8.297 Y12.214 A98.72892
G1 X8.015 Y12.594 A98.75291
G1 X21.873 Y26.452 A99.74550
G1 X21.784 Y27.026 A99.77494
G1 X7.733 Y12.975 A100.78143
G1 X7.451 Y13.355 A100.80542
G1 X21.674 Y27.579 A101.82424
G1 X21.564 Y28.132 A101.85279
G1 X7.168 Y13.736 A102.88395
G1 X6.871 Y14.101 A102.90781
G1 X21.400 Y28.630 A103.94849
G1 X21.232 Y29.125 A103.97495
G1 X6.556 Y14.449 A105.02617
G1 X6.241 Y14.796 A105.04993
G1 X21.065 Y29.620 A106.11169
G1 X20.848 Y30.065 A106.13680
G1 X5.926 Y15.144 A107.20559
G1 X5.611 Y15.492 A107.22935
G1 X20.629 Y30.509 A108.30503
G1 X20.410 Y30.953 A108.33009
G1 X5.270 Y15.813 A109.41457
G1 X4.922 Y16.128 A109.43833
G1 X11.246 Y22.451 A109.89128
G1 X10.370 Y22.238 A109.93694
G1 X4.574 Y16.443 A110.35206
G1 X4.227 Y16.758 A110.37582
G1 X9.716 Y22.247 A110.76902
G1 X9.179 Y22.373 A110.79694
G1 X3.873 Y17.067 A111.17703
G1 X3.492 Y17.349 A111.20102
G1 X8.719 Y22.576 A111.57542
G1 X8.320 Y22.839 A111.59965
G1 X3.112 Y17.631 A111.97269
G1 X2.732 Y17.913 A111.99668
G1 X7.974 Y23.155 A112.37219
G1 X7.680 Y23.524 A112.39607
G1 X2.351 Y18.195 A112.77778
G1 X1.950 Y18.457 A112.80203
G1 X7.449 Y23.956 A113.19591
G1 X7.288 Y24.458 A113.22260
G1 X1.536 Y18.705 A113.63464
G1 X1.122 Y18.954 A113.65911
G1 X7.215 Y25.047 A114.09554
G1 X7.307 Y25.802 A114.13408
G1 X0.707 Y19.202 A114.60682
G1 X0.289 Y19.447 A114.63135
G1 X16.141 Y35.298 A115.76676
G1 X16.538 Y35.033 A115.79096
G1 X9.198 Y27.693 A116.31670
G1 X9.953 Y27.785 A116.35523
G1 X16.935 Y34.767 A116.85533
G1 X17.331 Y34.500 A116.87951
G1 X10.542 Y27.712 A117.36578
G1 X11.044 Y27.551 A117.39247
G1 X17.684 Y34.191 A117.86809
G1 X18.037 Y33.881 A117.89187
G1 X11.476 Y27.320 A118.36184
G1 X11.845 Y27.026 A118.38572
G1 X18.382 Y33.563 A118.85398
G1 X18.712 Y33.230 A118.87771
G1 X12.161 Y26.680 A119.34691
G1 X12.424 Y26.281 A119.37114
G1 X19.021 Y32.877 A119.84366
G1 X19.331 Y32.524 A119.86745
G1 X12.627 Y25.821 A120.34762
G1 X12.753 Y25.284 A120.37555
G1 X19.622 Y32.153 A120.86756
G1 X19.887 Y31.756 A120.89176
G1 X12.764 Y24.632 A121.40197
G1 X12.549 Y23.754 A121.44776
G1 X20.153 Y31.358 A121.99242
G1 X15.710 Y35.530 F9600.000
G1 X-0.161 Y19.659 A123.12919 F1800.000
G1 X-0.610 Y19.872 A123.15439
G1 X15.266 Y35.749 A124.29160
G1 X14.822 Y35.968 A124.31666
G1 X-1.060 Y20.085 A125.45431
G1 X-1.510 Y20.298 A125.47951
G1 X14.349 Y36.157 A126.61545
G1 X13.854 Y36.325 A126.64191
G1 X-1.963 Y20.508 A127.77482
G1 X-1.963 Y21.171 A127.80838
G1 X13.359 Y36.492 A128.90586
G1 X12.829 Y36.625 A128.93354
G1 X-1.963 Y21.833 A129.99303
G1 X-1.963 Y22.496 A130.02659
G1 X12.276 Y36.735 A131.04648
G1 X11.723 Y36.845 A131.07502
G1 X-1.963 Y23.159 A132.05533
G1 X-1.963 Y23.821 A132.08889
G1 X11.111 Y36.895 A133.02533
G1 X10.489 Y36.936 A133.05690
G1 X-1.963 Y24.484 A133.94880
G1 X-1.944 Y25.165 A133.98332
G1 X9.835 Y36.944 A134.82701
G1 X9.126 Y36.897 A134.86300
G1 X-1.897 Y25.874 A135.65257
G1 X-1.829 Y26.606 A135.68978
G1 X8.394 Y36.829 A136.42203
G1 X7.567 Y36.664 A136.46475
G1 X-1.664 Y27.433 A137.12597
G1 X-1.438 Y28.321 A137.17241
G1 X6.679 Y36.438 A137.75380
G1 X5.675 Y36.098 F9600.000
G1 X-1.098 Y29.325 A138.23893 F1800.000
G1 X-0.488 Y30.597 F9600.000
G1 X4.403 Y35.488 A138.58928 F1800.000
G1 X1.941 Y33.688 F9600.000
G1 X1.312 Y33.059 A138.63433 F1800.000
G1 F7680
G1 X1.941 Y33.688 A138.46929
G1 A137.13433 F1500.00000
G92 A0
G1 Z1.100 F9600.000
G1 X12.551 Y-6.062 F9600.000
G1 Z0.800 F9600.000
G1 A1.50000 F1500.00000
G1 X10.526 Y-8.087 A1.64503 F1800.000
G1 X10.895 Y-7.055 F9600.000
G1 X11.600 Y-6.351 A1.69548 F1800.000
G1 F7680
G1 X10.895 Y-7.055 A1.51065
G1 A0.19548 F1500.00000
G92 A0
G1 Z1.100 F9600.000
G1 X-9.699 Y-6.232 F9600.000
G1 Z0.800 F9600.000
G1 A1.50000 F1500.00000
G1 X-10.000 Y-6.261 A1.51527 F840.000
G1 X-11.221 Y-6.141 A1.57714
G1 X-12.396 Y-5.785 A1.63902
G1 X-13.479 Y-5.206 A1.70089
G1 X-14.427 Y-4.427 A1.76277
G1 X-15.206 Y-3.479 A1.82464
G1 X-15.785 Y-2.396 A1.88652
G1 X-16.141 Y-1.222 A1.94839
G1 X-16.261 Y0.000 A2.01027
G1 X-16.141 Y1.222 A2.07214
G1 X-15.785 Y2.396 A2.13402
G1 X-15.206 Y3.479 A2.19589
G1 X-14.427 Y4.427 A2.25777
G1 X-13.479 Y5.206 A2.31964
G1 X-12.396 Y5.785 A2.38151
G1 X-11.221 Y6.141 A2.44339
G1 X-10.000 Y6.261 A2.50526
G1 X-9.699 Y6.232 A2.52053
G1 X-10.377 Y8.128 A2.62207
G1 X-11.268 Y10.012 A2.72715
G1 X-12.340 Y11.800 A2.83222
G1 X-13.582 Y13.474 A2.93730
G1 X-14.981 Y15.019 A3.04237
G1 X-16.526 Y16.418 A3.14744
G1 X-18.200 Y17.660 A3.25251
G1 X-19.988 Y18.732 A3.35759
G1 X-21.872 Y19.623 A3.46266
G1 X-22.240 Y19.755 A3.48237
G1 X-22.240 Y-19.755 A5.47404
G1 X-21.926 Y-19.642 A5.49084
G1 X-19.987 Y-18.732 A5.59882
G1 X-18.200 Y-17.660 A5.70388
G1 X-16.526 Y-16.418 A5.80895
G1 X-14.981 Y-15.019 A5.91402
G1 X-13.582 Y-13.474 A6.01910
G1 X-12.340 Y-11.800 A6.12417
G1 X-11.268 Y-10.012 A6.22925
G1 X-10.377 Y-8.128 A6.33432
G1 X-9.719 Y-6.288 A6.43283
G1 X-10.383 Y-7.204 F9600.000
G1 X-21.963 Y-18.784 A7.26372 F1800.000
G1 X-21.963 Y-18.120 A7.29740
G1 X-10.340 Y-6.497 A8.13135
G1 X-10.944 Y-6.438 A8.16215
G1 X-21.963 Y-17.456 A8.95274
G1 X-21.963 Y-16.792 A8.98642
G1 X-11.493 Y-6.323 A9.73762
G1 X-12.002 Y-6.168 A9.76462
G1 X-21.963 Y-16.128 A10.47928
G1 X-21.963 Y-15.465 A10.51295
G1 X-12.501 Y-6.003 A11.19182
G1 X-12.934 Y-5.772 A11.21671
G1 X-21.963 Y-14.801 A11.86454
G1 X-21.963 Y-14.137 A11.89822
G1 X-13.366 Y-5.541 A12.51501
G1 X-13.766 Y-5.277 A12.53932
G1 X-21.963 Y-13.473 A13.12743
G1 X-21.963 Y-12.810 A13.16111
G1 X-14.131 Y-4.978 A13.72307
G1 X-14.495 Y-4.678 A13.74700
G1 X-21.963 Y-12.146 A14.28279
G1 X-21.963 Y-11.482 A14.31647
G1 X-14.812 Y-4.332 A14.82951
G1 X-15.112 Y-3.967 A14.85344
G1 X-21.963 Y-10.818 A15.34500
G1 X-21.963 Y-10.154 A15.37868
G1 X-15.411 Y-3.603 A15.84878
G1 X-15.645 Y-3.173 A15.87361
G1 X-21.963 Y-9.491 A16.32694
G1 X-21.963 Y-8.827 A16.36062
G1 X-15.876 Y-2.740 A16.79736
G1 X-16.083 Y-2.284 A16.82280
G1 X-21.963 Y-8.163 A17.24466
G1 X-21.963 Y-7.499 A17.27833
G1 X-16.238 Y-1.774 A17.68911
G1 X-16.392 Y-1.265 A17.71611
G1 X-21.963 Y-6.835 A18.11580
G1 X-21.963 Y-6.172 A18.14948
G1 X-16.464 Y-0.674 A18.54398
G1 X-16.524 Y-0.069 A18.57479
G1 X-21.963 Y-5.508 A18.96502
G1 X-21.963 Y-4.844 A18.99870
G1 X-16.488 Y0.630 A19.39150
G1 X-16.416 Y1.367 A19.42904
G1 X-21.963 Y-4.180 A19.82704
G1 X-21.963 Y-3.517 A19.86071
G1 X-16.135 Y2.311 A20.27887
G1 X-15.536 Y3.574 F9600.000
G1 X-21.963 Y-2.853 A20.74001 F1800.000
G1 X-21.963 Y-2.189 A20.77369
G1 X-10.968 Y8.805 A21.56256
G1 X-10.755 Y8.355 A21.58785
G1 X-13.574 Y5.536 A21.79013
G1 X-12.311 Y6.135 F9600.000
G1 X-10.557 Y7.889 A21.91600 F1800.000
G1 X-10.382 Y7.400 A21.94234
G1 X-11.367 Y6.416 A22.01298
G1 X-10.630 Y6.488 A22.05052
G1 X-10.207 Y6.911 A22.08088
G1 X-11.181 Y9.256 F9600.000
G1 X-21.963 Y-1.525 A22.85446 F1800.000
G1 X-21.963 Y-0.861 A22.88814
G1 X-11.394 Y9.707 A23.64642
G1 X-11.625 Y10.140 A23.67132
G1 X-21.963 Y-0.198 A24.41304
G1 X-21.963 Y0.466 A24.44672
G1 X-11.874 Y10.555 A25.17060
G1 X-12.123 Y10.970 A25.19515
G1 X-21.963 Y1.130 A25.90118
G1 X-21.963 Y1.794 A25.93486
G1 X-12.371 Y11.385 A26.62304
G1 X-12.629 Y11.791 A26.64744
G1 X-21.963 Y2.458 A27.31713
G1 X-21.963 Y3.121 A27.35081
G1 X-12.912 Y12.172 A28.00021
G1 X-13.195 Y12.553 A28.02429
G1 X-21.963 Y3.785 A28.65341
G1 X-21.963 Y4.449 A28.68709
G1 X-13.477 Y12.934 A29.29593
G1 X-13.760 Y13.315 A29.32000
G1 X-21.963 Y5.113 A29.90856
G1 X-21.963 Y5.776 A29.94224
G1 X-14.074 Y13.665 A30.50827
G1 X-14.389 Y14.013 A30.53212
G1 X-21.963 Y6.440 A31.07551
G1 X-21.963 Y7.104 A31.10918
G1 X-14.705 Y14.362 A31.62993
G1 X-15.028 Y14.702 A31.65375
G1 X-21.963 Y7.768 A32.15131
G1 X-21.963 Y8.432 A32.18499
G1 X-15.360 Y15.034 A32.65873
G1 X-15.704 Y15.354 A32.68256
G1 X-21.963 Y9.095 A33.13165
G1 X-21.963 Y9.759 A33.16532
G1 X-16.052 Y15.670 A33.58942
G1 X-16.400 Y15.985 A33.61327
G1 X-21.963 Y10.423 A34.01238
G1 X-21.963 Y11.087 A34.04606
G1 X-16.756 Y16.293 A34.41963
G1 X-17.137 Y16.576 A34.44371
G1 X-21.963 Y11.751 A34.78993
G1 X-21.963 Y12.414 A34.82361
G1 X-17.518 Y16.858 A35.14249
G1 X-17.900 Y17.141 A35.16656
G1 X-21.963 Y13.078 A35.45809
G1 X-21.963 Y13.742 A35.49177
G1 X-18.281 Y17.424 A35.75596
G1 X-18.693 Y17.675 A35.78046
G1 X-21.963 Y14.406 A36.01506
G1 X-21.963 Y15.069 A36.04874
G1 X-19.108 Y17.924 A36.25355
G1 X-19.523 Y18.173 A36.27810
G1 X-21.963 Y15.733 A36.45314
G1 X-21.963 Y16.397 A36.48682
G1 X-19.938 Y18.421 A36.63207
G1 X-20.378 Y18.646 A36.65711
G1 X-21.963 Y17.061 A36.77082
G1 X-21.963 Y17.725 A36.80450
G1 X-20.828 Y18.859 A36.88588
G1 X-21.279 Y19.072 A36.91117
G1 X-21.963 Y18.388 A36.96021
G1 X-21.963 Y19.052 A36.99389
G1 X-21.730 Y19.285 A37.01059
G1 F7680
G1 X-21.963 Y19.052 A36.94950
G1 F7680
G1 X-21.963 Y18.388 A36.82633
G1 F7680
G1 X-21.279 Y19.072 A36.64698
G1 F7680
G1 X-20.828 Y18.859 A36.55449
G1 F7680
G1 X-21.963 Y17.725 A36.25689
G1 F7680
G1 X-21.963 Y17.061 A36.13372
G1 F7680
G1 X-20.378 Y18.646 A35.71787
G1 F7680
G1 X-19.938 Y18.421 A35.62631
G1 F7680
G1 X-20.093 Y18.266 A35.58559
G1 A35.51059 F1500.00000
G92 A0
G1 Z1.100 F9600.000
G1 X-10.829 Y-8.314 F9600.000
G1 Z0.800 F9600.000
G1 A1.50000 F1500.00000
G1 X-21.677 Y-19.162 A2.27834 F1800.000
G1 X-20.425 Y-18.574 F9600.000
G1 X-11.425 Y-9.574 A2.92412 F1800.000
G1 X-12.367 Y-11.179 F9600.000
G1 X-18.821 Y-17.633 A3.38719 F1800.000
G1 X-15.649 Y-15.125 F9600.000
G1 X-14.875 Y-14.351 A3.44275 F1800.000
G1 Z0.950 F9600.000
G1 A1.94275 F1500.00000
G92 A0
G1 Z1.250 F9600.000
G1 X24.034 Y-14.025 F9600.000
G1 Z0.950 F9600.000
G1 A1.50000 F1500.00000
G1 X22.991 Y-14.025 A1.52445 F2400.000
G1 X22.991 Y-12.834 A1.55236
G1 X24.034 Y-12.834 A1.57681
G1 X24.034 Y-11.642 A1.60472
G1 X22.991 Y-11.642 A1.62917
G1 X22.991 Y-10.451 A1.65708
G1 X24.034 Y-10.451 A1.68153
G1 X24.137 Y-9.591 F9600.000
G1 X24.137 Y-14.409 A1.79440 F2400.000
G1 X22.882 Y-14.409 A1.82381
G1 X22.882 Y-13.429 A1.84677
G1 X22.868 Y-13.429 A1.84712
G1 X22.882 Y-9.591 A1.93703
G1 X24.137 Y-9.591 A1.96643
G1 F7680
G1 X22.882 Y-9.591 A1.73357
G1 F7680
G1 X22.868 Y-13.429 A1.02153
G1 F7680
G1 X22.882 Y-13.429 A1.01875
G1 F7680
G1 X22.882 Y-14.409 A0.83691
G1 F7680
G1 X24.137 Y-14.409 A0.60405
G1 F7680
G1 X24.137 Y-14.071 A0.54143
G1 A0.46643 F1500.00000
G92 A0
G1 Z1.250 F9600.000
G1 X24.034 Y9.802 F9600.000
G1 Z0.950 F9600.000
G1 A1.50000 F1500.00000
G1 X22.991 Y9.802 A1.52445 F2400.000
G1 X22.991 Y10.993 A1.55236
G1 X24.034 Y10.993 A1.57681
G1 X24.034 Y12.185 A1.60472
G1 X22.991 Y12.185 A1.62917
G1 X22.991 Y13.376 A1.65708
G1 X24.034 Y13.376 A1.68153
G1 X24.137 Y14.409 F9600.000
G1 X24.137 Y9.591 A1.79440 F2400.000
G1 X22.882 Y9.591 A1.82381
G1 X22.882 Y10.571 A1.84677
G1 X22.868 Y10.571 A1.84712
G1 X22.882 Y14.409 A1.93703
G1 X24.137 Y14.409 A1.96643
G1 Z1.050 F9600.000
G1 A0.46643 F1500.00000
G92 A0
G1 Z1.350 F9600.000
G1 X8.605 Y22.912 F9600.000
G1 Z1.050 F9600.000
G1 A1.50000 F1500.00000
G1 X9.039 Y22.680 A1.52481 F600.000
G1 X9.510 Y22.537 A1.54963
G1 X9.953 Y22.493 A1.57204 F600.000
G1 X10.488 Y22.536 A1.59911
G1 X10.961 Y22.680 A1.62404
G1 X11.395 Y22.912 A1.64886
G1 X11.776 Y23.224 A1.67368
G1 X12.088 Y23.605 A1.69849
G1 X12.320 Y24.039 A1.72331
G1 X12.463 Y24.510 A1.74812
G1 X12.511 Y25.000 A1.77294
G1 X12.463 Y25.490 A1.79776
G1 X12.320 Y25.961 A1.82257
G1 X12.088 Y26.395 A1.84739
G1 X11.776 Y26.776 A1.87221
G1 X11.395 Y27.088 A1.89703
G1 X10.961 Y27.320 A1.92184
G1 X10.490 Y27.463 A1.94666
G1 X10.000 Y27.511 A1.97148
G1 X9.510 Y27.463 A1.99629
G1 X9.039 Y27.320 A2.02111
G1 X8.605 Y27.088 A2.04592
G1 X8.224 Y26.776 A2.07074
G1 X7.912 Y26.395 A2.09556
G1 X7.680 Y25.961 A2.12038
G1 X7.537 Y25.490 A2.14519
G1 X7.489 Y25.000 A2.17001
G1 X7.537 Y24.510 A2.19483
G1 X7.680 Y24.039 A2.21964
G1 X7.912 Y23.605 A2.24446
G1 X8.224 Y23.224 A2.26927
G1 X8.558 Y22.950 A2.29107
G1 F7680
G1 X9.039 Y22.680 A2.18879
G1 F7680
G1 X9.510 Y22.537 A2.09744
G1 A0.79107 F1500.00000
G92 A0
G1 Z1.350 F9600.000
G1 X10.000 Y-22.489 F9600.000
G1 Z1.050 F9600.000
G1 A1.50000 F1500.00000
G1 X9.510 Y-22.537 A1.52482 F600.000
G1 X9.039 Y-22.680 A1.54963
G1 X8.605 Y-22.912 A1.57445
G1 X8.224 Y-23.224 A1.59927
G1 X7.912 Y-23.605 A1.62408
G1 X7.680 Y-24.039 A1.64890
G1 X7.537 Y-24.510 A1.67371
G1 X7.489 Y-25.000 A1.69853
G1 X7.537 Y-25.490 A1.72335
G1 X7.680 Y-25.961 A1.74816
G1 X7.912 Y-26.395 A1.77298
G1 X8.224 Y-26.776 A1.79780
G1 X8.605 Y-27.088 A1.82262
G1 X9.039 Y-27.320 A1.84743
G1 X9.510 Y-27.463 A1.87225
G1 X9.953 Y-27.507 A1.89466 F600.000
G1 X10.488 Y-27.464 A1.92172
G1 X10.961 Y-27.320 A1.94666
G1 X11.395 Y-27.088 A1.97148
G1 X11.776 Y-26.776 A1.99629
G1 X12.088 Y-26.395 A2.02111
G1 X12.320 Y-25.961 A2.04593
G1 X12.463 Y-25.490 A2.07074
G1 X12.511 Y-25.000 A2.09556
G1 X12.463 Y-24.510 A2.12038
G1 X12.320 Y-24.039 A2.14519
G1 X12.088 Y-23.605 A2.17001
G1 X11.776 Y-23.224 A2.19483
G1 X11.395 Y-22.912 A2.21964
G1 X10.961 Y-22.680 A2.24446
G1 X10.490 Y-22.537 A2.26927
G1 X10.060 Y-22.495 A2.29107
G1 X-2.240 Y-20.307 F9600.000
G1 X-2.240 Y-24.987 A2.52700 F840.000
G1 X-2.004 Y-27.388 A2.64859
G1 X-1.307 Y-29.684 A2.76954
G1 X-0.176 Y-31.799 A2.89048
G1 X1.346 Y-33.654 A3.01143
G1 X3.201 Y-35.176 A3.13237
G1 X5.316 Y-36.307 A3.25332
G1 X7.612 Y-37.004 A3.37426
G1 X10.000 Y-37.239 A3.49521
G1 X12.388 Y-37.004 A3.61615
G1 X14.684 Y-36.307 A3.73710
G1 X16.799 Y-35.176 A3.85804
G1 X18.654 Y-33.654 A3.97899
G1 X20.176 Y-31.799 A4.09994
G1 X21.307 Y-29.684 A4.22088
G1 X22.004 Y-27.388 A4.34182
G1 X22.240 Y-24.987 A4.46342
G1 X22.240 Y24.991 A6.98286
G1 X22.135 Y26.598 A7.06399
G1 X21.822 Y28.168 A7.14470
G1 X21.308 Y29.684 A7.22540
G1 X20.600 Y31.120 A7.30611
G1 X19.710 Y32.451 A7.38682
G1 X18.655 Y33.655 A7.46752
G1 X17.451 Y34.710 A7.54823
G1 X16.120 Y35.600 A7.62894
G1 X14.684 Y36.308 A7.70964
G1 X13.168 Y36.822 A7.79035
G1 X11.598 Y37.135 A7.87106
G1 X10.000 Y37.239 A7.95176
G1 X8.402 Y37.135 A8.03247
G1 X6.832 Y36.822 A8.11318
G1 X5.316 Y36.308 A8.19388
G1 X3.880 Y35.600 A8.27459
G1 X2.549 Y34.710 A8.35530
G1 X1.345 Y33.655 A8.43601
G1 X0.290 Y32.451 A8.51671
G1 X-0.600 Y31.120 A8.59742
G1 X-1.308 Y29.684 A8.67813
G1 X-1.822 Y28.168 A8.75883
G1 X-2.135 Y26.598 A8.83954
G1 X-2.240 Y24.991 A8.92067
G1 X-2.240 Y20.307 A9.15682
G1 X-1.673 Y20.104 A9.18720
G1 X0.258 Y19.191 A9.29485
G1 X2.089 Y18.093 A9.40250
G1 X3.805 Y16.821 A9.51015
G1 X5.387 Y15.387 A9.61779
G1 X6.821 Y13.805 A9.72544
G1 X8.093 Y12.089 A9.83309
G1 X9.191 Y10.258 A9.94074
G1 X10.104 Y8.327 A10.04839
G1 X10.823 Y6.317 A10.15604
G1 X10.858 Y6.177 A10.16331
G1 X11.222 Y6.141 A10.18171
G1 X12.396 Y5.785 A10.24358
G1 X13.479 Y5.206 A10.30546
G1 X14.427 Y4.427 A10.36733
G1 X15.206 Y3.479 A10.42921
G1 X15.785 Y2.396 A10.49108
G1 X16.141 Y1.222 A10.55295
G1 X16.261 Y0.000 A10.61483
G1 X16.141 Y-1.222 A10.67670
G1 X15.785 Y-2.396 A10.73858
G1 X15.206 Y-3.479 A10.80045
G1 X14.427 Y-4.427 A10.86233
G1 X13.479 Y-5.206 A10.92420
G1 X12.396 Y-5.785 A10.98608
G1 X11.222 Y-6.141 A11.04795
G1 X10.858 Y-6.177 A11.06635
G1 X10.823 Y-6.317 A11.07362
G1 X10.104 Y-8.327 A11.18127
G1 X9.191 Y-10.258 A11.28892
G1 X8.093 Y-12.089 A11.39657
G1 X6.821 Y-13.805 A11.50422
G1 X5.387 Y-15.387 A11.61186
G1 X3.805 Y-16.821 A11.71951
G1 X2.089 Y-18.093 A11.82716
G1 X0.258 Y-19.191 A11.93481
G1 X-1.673 Y-20.104 A12.04246
G1 X-2.184 Y-20.287 A12.06981
G1 X16.614 Y-16.517 F9600.000
G1 X16.852 Y-16.755 A12.08742 F1800.000
G1 X17.537 Y-16.755 A12.12327
G1 X16.614 Y-15.832 A12.19157
G1 X16.614 Y-15.147 A12.22742
G1 X18.222 Y-16.755 A12.34643
G1 X18.907 Y-16.755 A12.38228
G1 X16.614 Y-14.462 A12.55199
G1 X16.614 Y-13.777 A12.58784
G1 X19.592 Y-16.755 A12.80825
G1 X20.276 Y-16.755 A12.84410
G1 X16.614 Y-13.093 A13.11521
G1 X16.614 Y-12.408 A13.15106
G1 X20.961 Y-16.755 A13.47286
G1 X21.646 Y-16.755 A13.50871
G1 X16.614 Y-11.723 A13.88122
G1 X16.614 Y-11.038 A13.91707
G1 X21.963 Y-16.386 A14.31301
G1 X21.963 Y-15.701 A14.34886
G1 X16.614 Y-10.353 A14.74479
G1 X16.614 Y-9.668 A14.78064
G1 X21.963 Y-15.017 A15.17658
G1 X21.963 Y-14.332 A15.21243
G1 X16.614 Y-8.983 A15.60836
G1 X16.614 Y-8.299 A15.64421
G1 X21.963 Y-13.647 A16.04014
G1 X21.963 Y-12.962 A16.07599
G1 X16.614 Y-7.614 A16.47193
G1 X16.931 Y-7.245 A16.49735
G1 X21.963 Y-12.277 A16.86986
G1 X21.963 Y-11.592 A16.90571
G1 X17.616 Y-7.245 A17.22752
G1 X18.300 Y-7.245 A17.26337
G1 X21.963 Y-10.907 A17.53448
G1 X21.963 Y-10.223 A17.57033
G1 X18.985 Y-7.245 A17.79074
G1 X19.670 Y-7.245 A17.82659
G1 X21.963 Y-9.538 A17.99630
G1 X21.963 Y-8.853 A18.03215
G1 X20.355 Y-7.245 A18.15116
G1 X21.040 Y-7.245 A18.18701
G1 X21.963 Y-8.168 A18.25532
G1 X21.963 Y-7.483 A18.29117
G1 X21.725 Y-7.245 A18.30877
G1 X16.614 Y7.483 F9600.000
G1 X16.852 Y7.245 A18.32638 F1800.000
G1 X17.537 Y7.245 A18.36223
G1 X16.614 Y8.168 A18.43054
G1 X16.614 Y8.853 A18.46639
G1 X18.222 Y7.245 A18.58540
G1 X18.907 Y7.245 A18.62125
G1 X16.614 Y9.538 A18.79096
G1 X16.614 Y10.223 A18.82681
G1 X19.592 Y7.245 A19.04721
G1 X20.276 Y7.245 A19.08306
G1 X16.614 Y10.907 A19.35417
G1 X16.614 Y11.592 A19.39002
G1 X20.961 Y7.245 A19.71183
G1 X21.646 Y7.245 A19.74768
G1 X16.614 Y12.277 A20.12019
G1 X16.614 Y12.962 A20.15604
G1 X21.963 Y7.614 A20.55197
G1 X21.963 Y8.299 A20.58782
G1 X16.614 Y13.647 A20.98376
G1 X16.614 Y14.332 A21.01961
G1 X21.963 Y8.983 A21.41554
G1 X21.963 Y9.668 A21.45139
G1 X16.614 Y15.017 A21.84733
G1 X16.614 Y15.701 A21.88318
G1 X21.963 Y10.353 A22.27911
G1 X21.963 Y11.038 A22.31496
G1 X16.614 Y16.386 A22.71089
G1 X16.931 Y16.755 A22.73632
G1 X21.963 Y11.723 A23.10883
G1 X21.963 Y12.408 A23.14468
G1 X17.616 Y16.755 A23.46649
G1 X18.300 Y16.755 A23.50234
G1 X21.963 Y13.093 A23.77345
G1 X21.963 Y13.777 A23.80930
G1 X18.985 Y16.755 A24.02971
G1 X19.670 Y16.755 A24.06556
G1 X21.963 Y14.462 A24.23527
G1 X21.963 Y15.147 A24.27112
G1 X20.355 Y16.755 A24.39012
G1 X21.040 Y16.755 A24.42597
G1 X21.963 Y15.832 A24.49428
G1 X21.963 Y16.517 A24.53013
G1 X21.725 Y16.755 A24.54774
G1 X21.844 Y17.102 F9600.000
G1 X17.881 Y17.102 A24.74750 F2400.000
G1 X18.313 Y18.714 A24.83163
G1 X16.219 Y20.808 A24.98093
G1 X14.138 Y20.251 A25.08951
G1 X12.044 Y22.345 A25.23881
G1 X12.275 Y23.208 A25.28383
G1 X12.419 Y23.384 A25.29530
G1 X12.688 Y23.887 A25.32405
G1 X12.854 Y24.432 A25.35280
G1 X12.890 Y24.797 A25.37127
G1 X12.931 Y24.755 A25.37422
G1 X15.012 Y25.313 A25.48280
G1 X17.106 Y23.219 A25.63210
G1 X16.548 Y21.138 A25.74069
G1 X18.643 Y19.044 A25.88999
G1 X20.723 Y19.601 A25.99857
G1 X21.844 Y18.481 A26.07845
G1 X21.844 Y17.102 A26.14795
G1 X21.844 Y22.438 F9600.000
G1 X21.844 Y19.140 A26.31418 F2400.000
G1 X21.053 Y19.931 A26.37055
G1 X21.610 Y22.012 A26.47913
G1 X19.516 Y24.106 A26.62843
G1 X17.436 Y23.548 A26.73702
G1 X15.341 Y25.643 A26.88632
G1 X15.899 Y27.723 A26.99490
G1 X13.805 Y29.818 A27.14420
G1 X11.724 Y29.260 A27.25278
G1 X9.630 Y31.354 A27.40208
G1 X10.187 Y33.435 A27.51067
G1 X8.093 Y35.529 A27.65997
G1 X6.012 Y34.972 A27.76855
G1 X5.184 Y35.800 A27.82764
G1 X5.468 Y35.941 A27.84363
G1 X6.935 Y36.439 A27.92172
G1 X8.454 Y36.741 A27.99981
G1 X8.663 Y36.755 A28.01034
G1 X8.423 Y35.859 A28.05708
G1 X10.517 Y33.765 A28.20638
G1 X12.598 Y34.322 A28.31497
G1 X14.692 Y32.228 A28.46427
G1 X14.134 Y30.147 A28.57285
G1 X16.229 Y28.053 A28.72215
G1 X18.309 Y28.611 A28.83073
G1 X20.403 Y26.516 A28.98004
G1 X19.846 Y24.436 A29.08862
G1 X21.844 Y22.438 A29.23103
G1 X21.633 Y27.087 F9600.000
G1 X20.733 Y26.846 A29.27800 F2400.000
G1 X18.639 Y28.940 A29.42730
G1 X19.196 Y31.021 A29.53589
G1 X17.102 Y33.115 A29.68519
G1 X15.022 Y32.558 A29.79377
G1 X12.927 Y34.652 A29.94307
G1 X13.378 Y36.333 A30.03078
G1 X14.532 Y35.941 A30.09222
G1 X15.921 Y35.256 A30.17031
G1 X17.209 Y34.395 A30.24840
G1 X17.596 Y34.056 A30.27432
G1 X17.432 Y33.445 A30.30621
G1 X19.526 Y31.351 A30.45551
G1 X19.901 Y31.451 A30.47510
G1 X20.256 Y30.921 A30.50724
G1 X20.941 Y29.532 A30.58533
G1 X21.439 Y28.065 A30.66341
G1 X21.633 Y27.087 A30.71367
G1 X16.267 Y15.993 F9600.000
G1 X16.267 Y11.527 A30.93882 F2400.000
G1 X14.458 Y13.336 A31.06779
G1 X15.015 Y15.417 A31.17637
G1 X12.921 Y17.511 A31.32567
G1 X10.840 Y16.953 A31.43426
G1 X8.746 Y19.048 A31.58356
G1 X9.304 Y21.128 A31.69214
G1 X7.209 Y23.222 A31.84144
G1 X5.129 Y22.665 A31.95002
G1 X3.035 Y24.759 A32.09932
G1 X3.592 Y26.840 A32.20791
G1 X1.498 Y28.934 A32.35721
G1 X-0.583 Y28.376 A32.46579
G1 X-1.143 Y28.937 A32.50572
G1 X-0.941 Y29.532 A32.53741
G1 X-0.256 Y30.921 A32.61550
G1 X0.605 Y32.209 A32.69358
G1 X1.033 Y32.697 A32.72628
G1 X2.385 Y31.344 A32.82270
G1 X1.828 Y29.264 A32.93128
G1 X3.922 Y27.169 A33.08058
G1 X6.002 Y27.727 A33.18916
G1 X7.418 Y26.312 A33.29007
G1 X7.312 Y26.113 A33.30139
G1 X7.146 Y25.568 A33.33014
G1 X7.090 Y25.000 A33.35890
G1 X7.146 Y24.432 A33.38765
G1 X7.312 Y23.887 A33.41640
G1 X7.581 Y23.384 A33.44515
G1 X7.943 Y22.943 A33.47391
G1 X8.384 Y22.581 A33.50266
G1 X8.656 Y22.435 A33.51825
G1 X9.633 Y21.458 A33.58791
G1 X11.714 Y22.015 A33.69649
G1 X13.808 Y19.921 A33.84580
G1 X13.251 Y17.841 A33.95438
G1 X15.345 Y15.746 A34.10368
G1 X16.267 Y15.993 A34.15179
G1 X16.267 Y8.229 F9600.000
G1 X16.267 Y7.570 A34.18503 F2400.000
G1 X15.335 Y8.502 A34.25146
G1 X13.254 Y7.944 A34.36005
G1 X11.160 Y10.038 A34.50935
G1 X11.718 Y12.119 A34.61793
G1 X9.623 Y14.213 A34.76723
G1 X7.543 Y13.656 A34.87581
G1 X6.988 Y14.210 A34.91534
G1 X5.667 Y15.667 A35.01449
G1 X5.474 Y15.843 A35.02768
G1 X6.006 Y17.831 A35.13140
G1 X3.912 Y19.925 A35.28070
G1 X1.831 Y19.367 A35.38928
G1 X-0.263 Y21.462 A35.53858
G1 X0.294 Y23.542 A35.64716
G1 X-1.801 Y25.636 A35.79649
G1 X-1.741 Y26.546 A35.84244
G1 X-1.439 Y28.065 A35.92052
G1 X-1.310 Y28.444 A35.94071
G1 X-0.913 Y28.047 A35.96905
G1 X-1.470 Y25.966 A36.07763
G1 X0.624 Y23.872 A36.22693
G1 X2.705 Y24.429 A36.33551
G1 X4.799 Y22.335 A36.48481
G1 X4.242 Y20.255 A36.59339
G1 X6.336 Y18.160 A36.74270
G1 X8.416 Y18.718 A36.85128
G1 X10.511 Y16.624 A37.00058
G1 X9.953 Y14.543 A37.10916
G1 X12.047 Y12.449 A37.25846
G1 X14.128 Y13.006 A37.36704
G1 X16.222 Y10.912 A37.51635
G1 X15.665 Y8.831 A37.62493
G1 X16.267 Y8.229 A37.66785
G1 X12.925 Y7.614 F9600.000
G1 X12.534 Y6.157 A37.74391 F2400.000
G1 X11.299 Y6.532 A37.80896
G1 X11.163 Y6.545 A37.81588
G1 X10.471 Y8.479 A37.91944
G1 X9.995 Y9.485 A37.97551
G1 X10.830 Y9.709 A38.01911
G1 X12.925 Y7.614 A38.16841
G1 X21.844 Y6.898 F9600.000
G1 X21.844 Y5.950 A38.21619 F2400.000
G1 X20.896 Y6.898 A38.28375
G1 X21.844 Y6.898 A38.33153
G1 X21.844 Y2.652 F9600.000
G1 X21.844 Y1.993 A38.36478 F2400.000
G1 X21.047 Y2.790 A38.42160
G1 X18.966 Y2.232 A38.53018
G1 X16.872 Y4.327 A38.67948
G1 X17.429 Y6.407 A38.78806
G1 X16.939 Y6.898 A38.82303
G1 X17.598 Y6.898 A38.85628
G1 X17.759 Y6.737 A38.86774
G1 X18.359 Y6.898 A38.89905
G1 X20.236 Y6.898 A38.99369
G1 X21.844 Y5.291 A39.10827
G1 X21.844 Y4.864 A39.12980
G1 X21.376 Y3.120 A39.22081
G1 X21.844 Y2.652 A39.25412
G1 X21.844 Y-6.652 F9600.000
G1 X21.380 Y-6.777 A39.27831 F2400.000
G1 X19.286 Y-4.682 A39.42761
G1 X19.843 Y-2.602 A39.53619
G1 X17.749 Y-0.508 A39.68549
G1 X16.579 Y-0.821 A39.74657
G1 X16.660 Y-0.000 A39.78817
G1 X16.532 Y1.299 A39.85398
G1 X16.153 Y2.549 A39.91979
G1 X15.518 Y3.723 A39.98706
G1 X16.542 Y3.997 A40.04048
G1 X18.636 Y1.903 A40.18978
G1 X18.079 Y-0.178 A40.29837
G1 X20.173 Y-2.272 A40.44767
G1 X21.844 Y-1.824 A40.53485
G1 X21.844 Y-6.652 A40.77823
G1 X20.842 Y-6.898 F9600.000
G1 X16.278 Y-6.898 A41.00828 F2400.000
G1 X16.546 Y-5.899 A41.06039
G1 X15.000 Y-4.354 A41.17056
G1 X15.298 Y-3.992 A41.19418
G1 X16.875 Y-5.570 A41.30667
G1 X18.956 Y-5.012 A41.41525
G1 X20.842 Y-6.898 A41.54968
G1 X16.267 Y-6.940 F9600.000
G1 X16.267 Y-8.259 A41.61615 F2400.000
G1 X15.988 Y-7.980 A41.63601
G1 X16.267 Y-6.940 A41.69028
G1 X16.267 Y-12.975 F9600.000
G1 X14.785 Y-13.372 A41.76763 F2400.000
G1 X12.691 Y-11.278 A41.91693
G1 X13.248 Y-9.197 A42.02551
G1 X11.154 Y-7.103 A42.17481
G1 X10.943 Y-7.159 A42.18582
G1 X11.163 Y-6.545 A42.21871
G1 X11.299 Y-6.532 A42.22563
G1 X11.570 Y-6.449 A42.23991
G1 X11.484 Y-6.773 A42.25681
G1 X13.578 Y-8.867 A42.40611
G1 X15.658 Y-8.310 A42.51469
G1 X16.267 Y-8.918 A42.55806
G1 X16.267 Y-12.975 A42.76256
G1 X21.844 Y-18.722 F9600.000
G1 X20.496 Y-19.083 A42.83286 F2400.000
G1 X18.515 Y-17.102 A42.97411
G1 X21.844 Y-17.102 A43.14190
G1 X21.844 Y-18.722 A43.22358
G1 X21.844 Y-24.968 F9600.000
G1 X21.659 Y-26.841 A43.31848 F2400.000
G1 X20.816 Y-25.998 A43.37857
G1 X21.374 Y-23.918 A43.48716
G1 X19.279 Y-21.824 A43.63646
G1 X17.199 Y-22.381 A43.74504
G1 X15.105 Y-20.287 A43.89434
G1 X15.662 Y-18.206 A44.00292
G1 X13.568 Y-16.112 A44.15222
G1 X11.487 Y-16.669 A44.26081
G1 X9.393 Y-14.575 A44.41011
G1 X9.951 Y-12.495 A44.51869
G1 X8.926 Y-11.470 A44.59171
G1 X9.173 Y-11.058 A44.61595
G1 X10.280 Y-12.165 A44.69486
G1 X12.361 Y-11.607 A44.80344
G1 X14.455 Y-13.702 A44.95274
G1 X13.898 Y-15.782 A45.06132
G1 X15.992 Y-17.876 A45.21062
G1 X18.072 Y-17.319 A45.31921
G1 X20.167 Y-19.413 A45.46851
G1 X19.609 Y-21.494 A45.57709
G1 X21.703 Y-23.588 A45.72639
G1 X21.844 Y-23.550 A45.73371
G1 X21.844 Y-24.968 A45.80515
G1 X20.001 Y-31.286 F9600.000
G1 X19.613 Y-31.390 A45.82541 F2400.000
G1 X17.519 Y-29.296 A45.97471
G1 X18.076 Y-27.215 A46.08329
G1 X15.982 Y-25.121 A46.23259
G1 X13.901 Y-25.679 A46.34118
G1 X12.875 Y-24.653 A46.41431
G1 X12.854 Y-24.432 A46.42548
G1 X12.688 Y-23.887 A46.45423
G1 X12.419 Y-23.384 A46.48298
G1 X12.057 Y-22.943 A46.51173
G1 X11.993 Y-22.890 A46.51592
G1 X12.365 Y-21.504 A46.58826
G1 X10.270 Y-19.410 A46.73756
G1 X8.190 Y-19.967 A46.84615
G1 X6.095 Y-17.873 A46.99545
G1 X6.653 Y-15.792 A47.10403
G1 X6.077 Y-15.216 A47.14511
G1 X6.390 Y-14.870 A47.16864
G1 X6.983 Y-15.462 A47.21088
G1 X9.063 Y-14.905 A47.31946
G1 X11.158 Y-16.999 A47.46876
G1 X10.600 Y-19.080 A47.57734
G1 X12.694 Y-21.174 A47.72664
G1 X14.775 Y-20.617 A47.83523
G1 X16.869 Y-22.711 A47.98453
G1 X16.312 Y-24.791 A48.09311
G1 X18.406 Y-26.886 A48.24241
G1 X20.486 Y-26.328 A48.35099
G1 X21.579 Y-27.421 A48.42890
G1 X20.939 Y-29.531 A48.54006
G1 X20.001 Y-31.286 A48.64038
G1 X16.990 Y-34.507 F9600.000
G1 X16.315 Y-34.688 A48.67559 F2400.000
G1 X14.221 Y-32.594 A48.82489
G1 X14.779 Y-30.513 A48.93348
G1 X12.684 Y-28.419 A49.08278
G1 X10.604 Y-28.976 A49.19136
G1 X9.486 Y-27.859 A49.27101
G1 X9.949 Y-27.905 A49.29443
G1 X10.562 Y-27.855 A49.32543
G1 X11.113 Y-27.688 A49.35449
G1 X11.616 Y-27.419 A49.38324
G1 X12.057 Y-27.057 A49.41199
G1 X12.419 Y-26.616 A49.44075
G1 X12.688 Y-26.113 A49.46950
G1 X12.854 Y-25.568 A49.49825
G1 X12.879 Y-25.315 A49.51103
G1 X13.572 Y-26.008 A49.56043
G1 X13.014 Y-28.089 A49.66901
G1 X15.108 Y-30.183 A49.81831
G1 X17.189 Y-29.626 A49.92690
G1 X19.283 Y-31.720 A50.07620
G1 X19.067 Y-32.526 A50.11826
G1 X18.372 Y-33.372 A50.17346
G1 X16.990 Y-34.507 A50.26362
G1 X12.124 Y-36.631 F9600.000
G1 X11.705 Y-36.673 A50.28483 F2400.000
G1 X10.923 Y-35.891 A50.34054
G1 X11.481 Y-33.811 A50.44912
G1 X9.387 Y-31.716 A50.59842
G1 X7.306 Y-32.274 A50.70700
G1 X5.212 Y-30.180 A50.85630
G1 X5.769 Y-28.099 A50.96489
G1 X3.675 Y-26.005 A51.11419
G1 X1.594 Y-26.562 A51.22277
G1 X-0.500 Y-24.468 A51.37207
G1 X0.058 Y-22.387 A51.48065
G1 X-1.770 Y-20.560 A51.61095
G1 X-1.303 Y-20.367 A51.63642
G1 X0.387 Y-22.058 A51.75692
G1 X2.468 Y-21.500 A51.86550
G1 X4.562 Y-23.594 A52.01480
G1 X4.005 Y-25.675 A52.12338
G1 X6.099 Y-27.769 A52.27268
G1 X8.143 Y-27.222 A52.37934
G1 X8.391 Y-27.423 A52.39548
G1 X10.274 Y-29.306 A52.52969
G1 X9.716 Y-31.387 A52.63827
G1 X11.811 Y-33.481 A52.78757
G1 X13.891 Y-32.923 A52.89616
G1 X15.986 Y-35.018 A53.04546
G1 X15.940 Y-35.186 A53.05424
G1 X14.531 Y-35.939 A53.13479
G1 X12.310 Y-36.613 A53.25180
G1 X12.124 Y-36.631 A53.26124
G1 X11.104 Y-36.732 F9600.000
G1 X10.000 Y-36.840 A53.31718 F2400.000
G1 X8.743 Y-36.717 A53.38083
G1 X10.594 Y-36.221 A53.47739
G1 X11.104 Y-36.732 A53.51380
G1 X6.419 Y-34.684 F9600.000
G1 X8.419 Y-36.685 A53.65643 F2400.000
G1 X7.687 Y-36.612 A53.69352
G1 X6.089 Y-35.014 A53.80745
G1 X4.523 Y-35.434 A53.88919
G1 X3.422 Y-34.845 A53.95213
G1 X2.643 Y-34.205 A54.00295
G1 X1.914 Y-33.477 A54.05487
G1 X2.472 Y-31.397 A54.16345
G1 X0.377 Y-29.302 A54.31275
G1 X-0.881 Y-29.640 A54.37844
G1 X-0.939 Y-29.531 A54.38464
G1 X-1.613 Y-27.310 A54.50165
G1 X-1.834 Y-25.067 A54.61527
G1 X-0.830 Y-24.798 A54.66768
G1 X1.265 Y-26.892 A54.81698
G1 X0.707 Y-28.973 A54.92557
G1 X2.801 Y-31.067 A55.07487
G1 X4.882 Y-30.509 A55.18345
G1 X6.976 Y-32.604 A55.33275
G1 X6.419 Y-34.684 A55.44133
G1 X7.909 Y-22.984 F9600.000
G1 X7.612 Y-23.346 A55.46496 F2400.000
G1 X6.973 Y-22.707 A55.51051
G1 X4.892 Y-23.265 A55.61909
G1 X2.798 Y-21.170 A55.76839
G1 X3.355 Y-19.090 A55.87697
G1 X2.527 Y-18.262 A55.93600
G1 X2.906 Y-17.981 A55.95977
G1 X3.685 Y-18.760 A56.01531
G1 X5.766 Y-18.203 A56.12389
G1 X7.860 Y-20.297 A56.27320
G1 X7.302 Y-22.377 A56.38178
G1 X7.909 Y-22.984 A56.42501
G1 F7680
G1 X7.302 Y-22.377 A56.26589
G1 F7680
G1 X7.860 Y-20.297 A55.86622
G1 F7680
G1 X5.766 Y-18.203 A55.31668
G1 F7680
G1 X4.117 Y-18.644 A55.00001
G1 A54.92501 F1500.00000
G92 A0
G1 Z1.350 F9600.000
G1 X1.501 Y19.038 F9600.000
G1 Z1.050 F9600.000
G1 A1.50000 F1500.00000
G1 X1.471 Y18.926 A1.50584 F2400.000
G1 X0.445 Y19.541 A1.56618
G1 X-1.521 Y20.471 A1.67579
G1 X-1.844 Y20.586 A1.69308
G1 X-1.844 Y20.797 A1.70369
G1 X-0.593 Y21.132 A1.76897
G1 X1.501 Y19.038 A1.91827
G1 X7.943 Y27.057 F9600.000
G1 X7.667 Y26.722 A1.94016 F2400.000
G1 X6.332 Y28.057 A2.03533
G1 X6.890 Y30.137 A2.14392
G1 X4.795 Y32.232 A2.29322
G1 X2.715 Y31.674 A2.40180
G1 X1.341 Y33.048 A2.49976
G1 X1.626 Y33.374 A2.52159
G1 X2.791 Y34.395 A2.59968
G1 X4.079 Y35.256 A2.67776
G1 X4.742 Y35.583 A2.71503
G1 X5.683 Y34.642 A2.78210
G1 X5.125 Y32.561 A2.89068
G1 X7.219 Y30.467 A3.03998
G1 X9.300 Y31.025 A3.14856
G1 X11.394 Y28.930 A3.29786
G1 X11.065 Y27.703 A3.36193
G1 X10.568 Y27.854 A3.38815
G1 X10.000 Y27.910 A3.41690
G1 X9.432 Y27.854 A3.44566
G1 X8.887 Y27.688 A3.47441
G1 X8.384 Y27.419 A3.50316
G1 X7.943 Y27.057 A3.53191
G1 F7680
G1 X8.384 Y27.419 A3.42608
G1 F7680
G1 X8.887 Y27.688 A3.32026
G1 F7680
G1 X9.432 Y27.854 A3.21442
G1 F7680
G1 X10.000 Y27.910 A3.10859
G1 F7680
G1 X10.568 Y27.854 A3.00275
G1 F7680
G1 X11.065 Y27.703 A2.90625
G1 F7680
G1 X11.394 Y28.930 A2.67043
G1 F7680
G1 X9.300 Y31.025 A2.12090
G1 F7680
G1 X9.227 Y31.005 A2.10691
G1 A2.03191 F1500.00000
G92 A0
G1 Z1.350 F9600.000
G1 X-9.699 Y-6.232 F9600.000
G1 Z1.050 F9600.000
G1 A1.50000 F1500.00000
G1 X-10.000 Y-6.261 A1.51527 F840.000
G1 X-11.221 Y-6.141 A1.57714
G1 X-12.396 Y-5.785 A1.63902
G1 X-13.479 Y-5.206 A1.70089
G1 X-14.427 Y-4.427 A1.76277
G1 X-15.206 Y-3.479 A1.82464
G1 X-15.785 Y-2.396 A1.88652
G1 X-16.141 Y-1.222 A1.94839
G1 X-16.261 Y0.000 A2.01027
G1 X-16.141 Y1.222 A2.07214
G1 X-15.785 Y2.396 A2.13402
G1 X-15.206 Y3.479 A2.19589
G1 X-14.427 Y4.427 A2.25777
G1 X-13.479 Y5.206 A2.31964
G1 X-12.396 Y5.785 A2.38151
G1 X-11.221 Y6.141 A2.44339
G1 X-10.000 Y6.261 A2.50526
G1 X-9.699 Y6.232 A2.52053
G1 X-10.377 Y8.128 A2.62207
G1 X-11.268 Y10.012 A2.72715
G1 X-12.340 Y11.800 A2.83222
G1 X-13.582 Y13.474 A2.93730
G1 X-14.981 Y15.019 A3.04237
G1 X-16.526 Y16.418 A3.14744
G1 X-18.200 Y17.660 A3.25251
G1 X-19.988 Y18.732 A3.35759
G1 X-21.872 Y19.623 A3.46266
G1 X-22.240 Y19.755 A3.48237
G1 X-22.240 Y-19.755 A5.47404
G1 X-21.946 Y-19.650 A5.48976
G1 X-19.987 Y-18.731 A5.59882
G1 X-18.200 Y-17.660 A5.70387
G1 X-16.526 Y-16.418 A5.80895
G1 X-14.981 Y-15.019 A5.91402
G1 X-13.582 Y-13.474 A6.01909
G1 X-12.340 Y-11.800 A6.12416
G1 X-11.268 Y-10.012 A6.22924
G1 X-10.377 Y-8.128 A6.33431
G1 X-9.719 Y-6.288 A6.43283
G1 X-17.352 Y-8.142 F9600.000
G1 X-17.114 Y-8.380 A6.45009 F1800.000
G1 X-17.114 Y-9.052 A6.48457
G1 X-18.024 Y-8.142 A6.55059
G1 X-18.695 Y-8.142 A6.58506
G1 X-17.114 Y-9.723 A6.69983
G1 X-17.114 Y-10.395 A6.73431
G1 X-19.367 Y-8.142 A6.89784
G1 X-20.038 Y-8.142 A6.93231
G1 X-17.114 Y-11.066 A7.14459
G1 X-17.114 Y-11.738 A7.17906
G1 X-20.710 Y-8.142 A7.44010
G1 X-21.382 Y-8.142 A7.47457
G1 X-17.114 Y-12.409 A7.78435
G1 X-17.114 Y-13.081 A7.81883
G1 X-21.963 Y-8.233 A8.17079
G1 X-21.963 Y-8.904 A8.20526
G1 X-17.114 Y-13.753 A8.55722
G1 X-17.114 Y-14.424 A8.59170
G1 X-21.963 Y-9.576 A8.94366
G1 X-21.963 Y-10.247 A8.97813
G1 X-17.114 Y-15.096 A9.33009
G1 X-17.114 Y-15.767 A9.36456
G1 X-21.963 Y-10.919 A9.71652
G1 X-21.963 Y-11.591 A9.75100
G1 X-17.695 Y-15.858 A10.06078
G1 X-18.367 Y-15.858 A10.09526
G1 X-21.963 Y-12.262 A10.35629
G1 X-21.963 Y-12.934 A10.39076
G1 X-19.038 Y-15.858 A10.60304
G1 X-19.710 Y-15.858 A10.63751
G1 X-21.963 Y-13.605 A10.80104
G1 X-21.963 Y-14.277 A10.83551
G1 X-20.382 Y-15.858 A10.95028
G1 X-21.053 Y-15.858 A10.98476
G1 X-21.963 Y-14.949 A11.05078
G1 X-21.963 Y-15.620 A11.08525
G1 X-21.725 Y-15.858 A11.10252
G1 X-17.909 Y-16.951 F9600.000
G1 X-18.655 Y-16.205 A11.15569 F2400.000
G1 X-19.315 Y-16.205 A11.18893
G1 X-18.288 Y-17.232 A11.26213
G1 X-17.909 Y-16.951 A11.28589
G1 X-14.437 Y-13.828 F9600.000
G1 X-16.428 Y-11.838 A11.42779 F2400.000
G1 X-15.870 Y-9.757 A11.53637
G1 X-16.767 Y-8.860 A11.60030
G1 X-16.767 Y-12.170 A11.76715
G1 X-14.751 Y-14.174 A11.91045
G1 X-14.437 Y-13.828 A11.93398
G1 X-11.703 Y-9.967 F9600.000
G1 X-13.130 Y-8.540 A12.03570 F2400.000
G1 X-12.572 Y-6.460 A12.14428
G1 X-13.259 Y-5.773 A12.19325
G1 X-13.700 Y-5.537 A12.21843
G1 X-14.709 Y-4.709 A12.28424
G1 X-14.933 Y-4.437 A12.30200
G1 X-16.747 Y-4.923 A12.39671
G1 X-18.842 Y-2.829 A12.54601
G1 X-18.284 Y-0.748 A12.65459
G1 X-20.378 Y1.346 A12.80390
G1 X-21.844 Y0.954 A12.88037
G1 X-21.844 Y-3.124 A13.08593
G1 X-21.252 Y-3.716 A13.12811
G1 X-19.171 Y-3.158 A13.23669
G1 X-17.077 Y-5.253 A13.38600
G1 X-17.635 Y-7.333 A13.49458
G1 X-17.173 Y-7.795 A13.52748
G1 X-16.767 Y-7.795 A13.54795
G1 X-16.767 Y-8.201 A13.56843
G1 X-15.540 Y-9.427 A13.65588
G1 X-13.460 Y-8.870 A13.76446
G1 X-11.950 Y-10.379 A13.87206
G1 X-11.703 Y-9.967 A13.89629
G1 X-17.964 Y-7.663 F9600.000
G1 X-18.456 Y-7.795 A13.92194 F2400.000
G1 X-17.833 Y-7.795 A13.95336
G1 X-17.964 Y-7.663 A13.96275
G1 X-21.844 Y-6.422 F9600.000
G1 X-21.844 Y-7.081 A13.99599 F2400.000
G1 X-21.130 Y-7.795 A14.04685
G1 X-20.471 Y-7.795 A14.08010
G1 X-21.844 Y-6.422 A14.17798
G1 X-21.582 Y-4.046 F9600.000
G1 X-21.844 Y-3.784 A14.19666 F2400.000
G1 X-21.844 Y-5.023 A14.25915
G1 X-21.582 Y-4.046 A14.31018
G1 X-16.660 Y0.000 F9600.000
G1 X-16.532 Y1.299 A14.37599 F2400.000
G1 X-16.153 Y2.549 A14.44180
G1 X-15.746 Y3.309 A14.48528
G1 X-17.081 Y4.644 A14.58043
G1 X-19.161 Y4.086 A14.68901
G1 X-21.256 Y6.181 A14.83831
G1 X-20.823 Y7.795 A14.92255
G1 X-21.844 Y7.795 A14.97399
G1 X-21.844 Y5.782 A15.07547
G1 X-21.585 Y5.851 A15.08895
G1 X-19.491 Y3.757 A15.23825
G1 X-20.049 Y1.676 A15.34684
G1 X-17.954 Y-0.418 A15.49614
G1 X-16.653 Y-0.070 A15.56406
G1 X-16.660 Y0.000 A15.56758
G1 X-14.709 Y4.709 F9600.000
G1 X-13.700 Y5.537 A15.63339 F2400.000
G1 X-12.549 Y6.153 A15.69920
G1 X-12.123 Y6.282 A15.72160
G1 X-13.783 Y7.941 A15.83993
G1 X-15.864 Y7.384 A15.94851
G1 X-16.767 Y8.287 A16.01290
G1 X-16.767 Y7.795 A16.03772
G1 X-16.934 Y7.795 A16.04615
G1 X-16.193 Y7.054 A16.09894
G1 X-16.751 Y4.974 A16.20752
G1 X-15.510 Y3.733 A16.29597
G1 X-14.709 Y4.709 A16.35964
G1 X-11.299 Y6.532 F9600.000
G1 X-10.263 Y6.634 A16.41210 F2400.000
G1 X-10.744 Y7.976 A16.48399
G1 X-11.618 Y9.825 A16.58710
G1 X-12.192 Y10.782 A16.64332
G1 X-12.566 Y10.682 A16.66286
G1 X-14.660 Y12.776 A16.81216
G1 X-14.392 Y13.778 A16.86447
G1 X-15.262 Y14.738 A16.92979
G1 X-16.767 Y16.102 A17.03217
G1 X-16.767 Y11.970 A17.24048
G1 X-14.990 Y12.446 A17.33320
G1 X-12.896 Y10.352 A17.48250
G1 X-13.453 Y8.271 A17.59109
G1 X-11.617 Y6.435 A17.72198
G1 X-11.299 Y6.532 A17.73874
G1 X-17.454 Y16.614 F9600.000
G1 X-18.278 Y16.393 A17.78171 F2400.000
G1 X-20.348 Y18.464 A17.92934
G1 X-21.844 Y19.171 A18.01271
G1 X-21.844 Y17.852 A18.07922
G1 X-20.702 Y18.158 A18.13882
G1 X-18.749 Y16.205 A18.27799
G1 X-16.904 Y16.205 A18.37104
G1 X-17.454 Y16.614 A18.40560
G1 X-17.352 Y15.858 F9600.000
G1 X-17.114 Y15.620 A18.42286 F1800.000
G1 X-17.114 Y14.948 A18.45734
G1 X-18.024 Y15.858 A18.52336
G1 X-18.695 Y15.858 A18.55783
G1 X-17.114 Y14.277 A18.67261
G1 X-17.114 Y13.605 A18.70708
G1 X-19.367 Y15.858 A18.87061
G1 X-20.038 Y15.858 A18.90508
G1 X-17.114 Y12.934 A19.11736
G1 X-17.114 Y12.262 A19.15183
G1 X-20.710 Y15.858 A19.41287
G1 X-21.382 Y15.858 A19.44734
G1 X-17.114 Y11.591 A19.75712
G1 X-17.114 Y10.919 A19.79160
G1 X-21.963 Y15.767 A20.14356
G1 X-21.963 Y15.096 A20.17803
G1 X-17.114 Y10.247 A20.52999
G1 X-17.114 Y9.576 A20.56447
G1 X-21.963 Y14.424 A20.91643
G1 X-21.963 Y13.753 A20.95090
G1 X-17.114 Y8.904 A21.30286
G1 X-17.114 Y8.233 A21.33733
G1 X-21.963 Y13.081 A21.68929
G1 X-21.963 Y12.409 A21.72377
G1 X-17.695 Y8.142 A22.03355
G1 X-18.367 Y8.142 A22.06802
G1 X-21.963 Y11.738 A22.32906
G1 X-21.963 Y11.066 A22.36353
G1 X-19.038 Y8.142 A22.57581
G1 X-19.710 Y8.142 A22.61028
G1 X-21.963 Y10.395 A22.77381
G1 X-21.963 Y9.723 A22.80828
G1 X-20.382 Y8.142 A22.92305
G1 X-21.053 Y8.142 A22.95753
G1 X-21.963 Y9.051 A23.02355
G1 X-21.963 Y8.380 A23.05802
G1 X-21.725 Y8.142 A23.07529
G1 Z1.250 F9600.000
G1 A21.57529 F1500.00000
G92 A0
G1 Z1.550 F9600.000
G1 X24.034 Y9.802 F9600.000
G1 Z1.250 F9600.000
G1 A1.50000 F1500.00000
G1 X22.991 Y9.802 A1.52445 F2400.000
G1 X22.991 Y10.993 A1.55236
G1 X24.034 Y10.993 A1.57681
G1 X24.034 Y12.185 A1.60472
G1 X22.991 Y12.185 A1.62917
G1 X22.991 Y13.376 A1.65708
G1 X24.034 Y13.376 A1.68153
G1 X24.137 Y14.409 F9600.000
G1 X24.137 Y9.591 A1.79440 F2400.000
G1 X22.882 Y9.591 A1.82381
G1 X22.882 Y10.571 A1.84677
G1 X22.868 Y10.571 A1.84712
G1 X22.882 Y14.409 A1.93703
G1 X24.137 Y14.409 A1.96643
G1 F7680
G1 X22.882 Y14.409 A1.73357
G1 F7680
G1 X22.868 Y10.571 A1.02153
G1 F7680
G1 X22.882 Y10.571 A1.01875
G1 F7680
G1 X22.882 Y9.591 A0.83691
G1 F7680
G1 X24.137 Y9.591 A0.60405
G1 F7680
G1 X24.137 Y9.929 A0.54143
G1 A0.46643 F1500.00000
G92 A0
G1 Z1.550 F9600.000
G1 X24.137 Y-9.591 F9600.000
G1 Z1.250 F9600.000
G1 A1.50000 F1500.00000
G1 X24.137 Y-14.409 A1.61287 F2400.000
G1 X22.882 Y-14.409 A1.64227
G1 X22.882 Y-13.429 A1.66523
G1 X22.868 Y-13.429 A1.66558
G1 X22.882 Y-9.591 A1.75549
G1 X24.137 Y-9.591 A1.78490
